!!!!SEGMENT: pl-cz--iii-666--001-006_scigalski-franciszek--missa-in-c-et-incarnatus.krn
!!!cenid: 18xx:1089
!!!COM: Ścigalski, Franciszek
!!!COM-rismID: pe30002948
!!!CDT: 1782/01/29-1846/09/27
!!!CNT: Polish
!!!OPR: Missa in C
!!!OTL: Et incarnatus
!!!OMV: 006
!!!PDT:
!!!AGN: Sacred; Mass
!!!SMS-siglum: PL-CZ
!!!SMS-shelfmark: III-666
!!!SMS-shelfwork: 001-006 M
!!!SMS-variant:
!!!SMS-altvar:
!!!NIFC-rismSourceID: 300001312
!!!NIFC-rismChildID: 300001312
!!!NIFC-islandoraID: pl-cz:39667
!!!URL-pdf-islandora: https://repozytorium.nifc.pl/islandora/object/pl-cz%3A39667/datastream/PDF/view
!!!URL-scan: https://polish.musicsources.pl/pl/lokalizacje/galeria/rekopisy/6970/1 @EN{Scan on Polish Music Sources Website} @PL{Skany w portalu Dziedzictwo Muzyki Polskiej w otwartym dostępie}
!!!IIIF:
!!!ONB-nifc: UWAGA: części Mszy: Kyrie, Gloria, Qui tollis, Quoniam, Credo, Et incarnatus,
!!!AIN: 1 alto 1 clars 2 cor 3 empty 2 fagot 2 flt 1 organ 1 tenor 1 timpa 1 viola 2 violn 1 vox
!!!key:
**kern	**fba	**dynam	**kern	**dynam	**kern	**dynam	**kern	**dynam	**kern	**text	**kern	**text	**kern	**text	**kern	**text	**kern	**kern	**kern	**kern	**dynam	**kern	**dynam	**kern	**dynam	**kern	**dynam	**kern	**dynam	**kern	**dynam	**kern
*part18	*	*part18	*part17	*part17	*part16	*part16	*part15	*part15	*part14	*part14	*part13	*part13	*part12	*part12	*part11	*part11	*part10	*part9	*part8	*part7	*part7	*part6	*part6	*part5	*part5	*part4	*part4	*part3	*part3	*part2	*part2	*part1
*staff18	*	*	*staff17	*	*staff16	*	*staff15	*	*staff14	*staff14	*staff13	*staff13	*staff12	*staff12	*staff11	*staff11	*staff10	*staff9	*staff8	*staff7	*	*staff6	*	*staff5	*	*staff4	*	*staff3	*	*staff2	*	*staff1
*Iorgan	*	*	*Iviola	*	*Ivioln	*	*Ivioln	*	*Iempty	*	*Itenor	*	*Ialto	*	*Ivox	*	*Itimpa	*Iempty	*Icor	*Icor	*	*Ifagot	*	*Ifagot	*	*Iempty	*	*Iclars	*	*Iflt	*	*Iflt
*I"Organo.	*	*	*I"Viola.	*	*I"Violino Secondo	*	*I"Violino Primo	*	*I"Baſso!	*	*I"Tenore.	*	*I"Alto.	*	*I"Canto	*	*I"Tympano in C. G.	*I"Clarino Principale. in C.	*I"Corno Secundo in G	*I"Corno Primo in G	*	*I"Fagotto Secondo.	*	*I"Fagotto Primo.	*	*I"Clarinetto Secondo. in C.	*	*I"Clarinetto Primo in C	*	*I"Flauto Secondo.	*	*I"Flauto Primo.
*I'Organo.	*	*	*I'Viola.	*	*I'Violino Secondo	*	*I'Violino Primo	*	*I'Baſso!	*	*I'Tenore.	*	*I'Alto.	*	*I'Canto	*	*I'Tympano in C. G.	*I'Clarino Principale. in C.	*I'Corno Secundo in G	*I'Corno Primo in G	*	*I'Fagotto Secondo.	*	*I'Fagotto Primo.	*	*I'Clarinetto Secondo. in C.	*	*I'Clarinetto Primo in C	*	*I'Flauto Secondo.	*	*I'Flauto Primo.
*clefF4	*	*	*clefC3	*	*clefG2	*	*clefG2	*	*clefF4	*	*clefC4	*	*clefC3	*	*clefC1	*	*clefF4	*clefG2	*clefG2	*clefG2	*	*clefF4	*	*clefF4	*	*clefG2	*	*clefG2	*	*clefG2	*	*clefG2
*	*	*	*	*	*	*	*	*	*	*	*	*	*	*	*	*	*	*	*ITrd4c7	*ITrd4c7	*	*	*	*	*	*	*	*	*	*	*	*
*k[b-]	*	*	*k[b-]	*	*k[b-]	*	*k[b-]	*	*k[b-]	*	*k[b-]	*	*k[b-]	*	*k[b-]	*	*k[b-]	*k[b-]	*k[b-]	*k[b-]	*	*k[b-]	*	*k[b-]	*	*k[b-]	*	*k[b-]	*	*k[b-]	*	*k[b-]
*F:	*	*	*F:	*	*F:	*	*F:	*	*F:	*	*F:	*	*F:	*	*F:	*	*F:	*F:	*F:	*F:	*	*F:	*	*F:	*	*F:	*	*F:	*	*F:	*	*F:
*M2/2	*	*	*M2/2	*	*M2/2	*	*M2/2	*	*M2/2	*	*M2/2	*	*M2/2	*	*M2/2	*	*M2/2	*M2/2	*M2/2	*M2/2	*	*M2/2	*	*M2/2	*	*M2/2	*	*M2/2	*	*M2/2	*	*M2/2
*met(c|)	*	*	*met(c)	*	*met(c|)	*	*met(c|)	*	*met(c|)	*	*met(c|)	*	*met(c|)	*	*met(c|)	*	*met(c|)	*met(c|)	*met(c|)	*met(c|)	*	*met(c|)	*	*met(c|)	*	*met(c|)	*	*met(c|)	*	*met(c|)	*	*met(c|)
=1	=1	=1	=1	=1	=1	=1	=1	=1	=1	=1	=1	=1	=1	=1	=1	=1	=1	=1	=1	=1	=1	=1	=1	=1	=1	=1	=1	=1	=1	=1	=1	=1
*2\right	*	*	*2\right	*	*2\right	*	*2\right	*	*2\right	*	*2\right	*	*2\right	*	*2\right	*	*2\right	*2\right	*2\right	*2\right	*	*2\right	*	*2\right	*	*2\right	*	*2\right	*	*2\right	*	*2\right
*all\right	*	*	*all\right	*	*	*	*	*	*all\right	*	*	*	*	*	*	*	*	*	*	*	*	*	*	*	*	*	*	*all\right	*	*	*	*
!	!	!	!	!	!	!	!LO:TX:a:t=Adagio.	!	!	!	!	!	!LO:TX:a:t=42.	!	!	!	!	!	!	!	!	!LO:TX:a:t=7.	!	!LO:TX:a:t=7.	!	!LO:TX:a:t=7.	!	!LO:TX:a:t=7.	!	!	!	!
!	!	!	!	!	!LO:TX:a:t=Adagio.	!	!	!	!LO:TX:a:t=42.	!	!LO:TX:a:t=42	!	!LO:TX:a:t=Adagio	!	!LO:TX:a:t=Adagio	!	!	!	!	!LO:TX:b:t=Adagio	!	!	!	!	!	!	!	!	!	!LO:TX:a:t=7	!	!LO:TX:a:t=Adagio.
!LO:TX:a:t=Adagio Solo	!	!	!LO:TX:a:t=Adagio.	!	!	!	!	!	!	!	!LO:TX:a:t=Adagio.	!	!	!	!LO:TX:a:t=15.	!	!LO:TX:a:t=Etincarnatus Tacet.	!LO:TX:a:t=Et incarnatus Est Tacet	!LO:TX:a:t=7	!LO:TX:a:t=Et incarnatus in F	!	!LO:TX:a:t=Adagio	!	!LO:TX:a:t=Adagio	!	!LO:TX:a:t=Adagio	!	!LO:TX:a:t=Adagio	!	!LO:TX:a:t=Adagio.	!	!LO:TX:a:t=7
!	!	!	!	!LO:DY:b:rj:t=p	!	!LO:DY:b:rj	!	!LO:DY:Bi:b:t=p&colon;	!	!	!	!	!	!	!	!	!	!	!	!	!	!	!	!	!	!	!	!	!	!	!	!
2F\	3	.	4f\	p	2c/	p	2a/	p	1r	.	1r	.	1r	.	00r	.	1ryy	00ryy	00r	00r	.	00r	.	00r	.	00r	.	00r	.	00r	.	00r
.	.	.	4r	.	.	.	.	.	.	.	.	.	.	.	.	.	.	.	.	.	.	.	.	.	.	.	.	.	.	.	.	.
2C/	5	.	4c\	.	8.B-/L	.	(<8.g/L	.	.	.	.	.	.	.	.	.	.	.	.	.	.	.	.	.	.	.	.	.	.	.	.	.
.	.	.	.	.	16A/K	.	16f/K	.	.	.	.	.	.	.	.	.	.	.	.	.	.	.	.	.	.	.	.	.	.	.	.	.
!	!	!	!	!	!LO:N:vis=8	!	!	!	!	!	!	!	!	!	!	!	!	!	!	!	!	!	!	!	!	!	!	!	!	!	!	!
.	.	.	4r	.	8.B-/	.	8.g/)	.	.	.	.	.	.	.	.	.	.	.	.	.	.	.	.	.	.	.	.	.	.	.	.	.
.	.	.	.	.	16c/Jk	.	16a/Jk	.	.	.	.	.	.	.	.	.	.	.	.	.	.	.	.	.	.	.	.	.	.	.	.	.
=2	=2	=2	=2	=2	=2	=2	=2	=2	=2	=2	=2	=2	=2	=2	=2	=2	=2	=2	=2	=2	=2	=2	=2	=2	=2	=2	=2	=2	=2	=2	=2	=2
4FF/	8	.	4F/	.	4A/	.	4f/	.	1r	.	1r	.	1r	.	.	.	1ryy	.	.	.	.	.	.	.	.	.	.	.	.	.	.	.
4r	.	.	4r	.	4A/	.	(4c/	.	.	.	.	.	.	.	.	.	.	.	.	.	.	.	.	.	.	.	.	.	.	.	.	.
2r	.	.	2r	.	4c/	.	4f/	.	.	.	.	.	.	.	.	.	.	.	.	.	.	.	.	.	.	.	.	.	.	.	.	.
.	.	.	.	.	4f/	.	4a/)	.	.	.	.	.	.	.	.	.	.	.	.	.	.	.	.	.	.	.	.	.	.	.	.	.
=3	=3	=3	=3	=3	=3	=3	=3	=3	=3	=3	=3	=3	=3	=3	=3	=3	=3	=3	=3	=3	=3	=3	=3	=3	=3	=3	=3	=3	=3	=3	=3	=3
!	!	!LO:DY:rj:b:Bi:t=p&colon;	!	!	!	!	!	!	!	!	!	!	!	!	!	!	!	!	!	!	!	!	!	!	!	!	!	!	!	!	!	!
4F\	5	p	4f\	.	4a/	.	4cc\	.	1r	.	1r	.	1r	.	.	.	1ryy	.	.	.	.	.	.	.	.	.	.	.	.	.	.	.
4E-X\	4	.	4e-X\	.	4f/	.	4a\	.	.	.	.	.	.	.	.	.	.	.	.	.	.	.	.	.	.	.	.	.	.	.	.	.
4D\	6	.	4d\	.	8.g/L	.	(8.b-\L	.	.	.	.	.	.	.	.	.	.	.	.	.	.	.	.	.	.	.	.	.	.	.	.	.
.	.	.	.	.	16g/K	.	16b-\K)	.	.	.	.	.	.	.	.	.	.	.	.	.	.	.	.	.	.	.	.	.	.	.	.	.
4BB-/	10	.	4B-\	.	8.a/	.	(8.cc\	.	.	.	.	.	.	.	.	.	.	.	.	.	.	.	.	.	.	.	.	.	.	.	.	.
.	.	.	.	.	16b-/Jk	.	16dd\Jk)	.	.	.	.	.	.	.	.	.	.	.	.	.	.	.	.	.	.	.	.	.	.	.	.	.
=4	=4	=4	=4	=4	=4	=4	=4	=4	=4	=4	=4	=4	=4	=4	=4	=4	=4	=4	=4	=4	=4	=4	=4	=4	=4	=4	=4	=4	=4	=4	=4	=4
4C/	5	.	4c\	.	4e/	.	(4g/	.	1r	.	1r	.	1r	.	.	.	1ryy	.	.	.	.	.	.	.	.	.	.	.	.	.	.	.
.	.	.	.	.	8qqg/	.	8qb-/	.	.	.	.	.	.	.	.	.	.	.	.	.	.	.	.	.	.	.	.	.	.	.	.	.
4BBn/	7	.	4Bn\	.	4f/	.	4a/)	.	.	.	.	.	.	.	.	.	.	.	.	.	.	.	.	.	.	.	.	.	.	.	.	.
4C/	5	.	4c\	.	4e/	.	4g|/	.	.	.	.	.	.	.	.	.	.	.	.	.	.	.	.	.	.	.	.	.	.	.	.	.
4r	.	.	4r	.	4r	.	4c|/	.	.	.	.	.	.	.	.	.	.	.	.	.	.	.	.	.	.	.	.	.	.	.	.	.
=5	=5	=5	=5	=5	=5	=5	=5	=5	=5	=5	=5	=5	=5	=5	=5	=5	=5	=5	=5	=5	=5	=5	=5	=5	=5	=5	=5	=5	=5	=5	=5	=5
!	!	!	!	!	!LO:LB:g=original	!	!	!	!	!	!	!	!	!	!	!	!	!	!	!	!	!	!	!	!	!	!	!	!	!	!	!
4C/	7	.	4c\	.	4.g/	.	4.b-/	.	1r	.	1r	.	1r	.	00r	.	1ryy	00ryy	0r	0r	.	0r	.	0r	.	0r	.	0r	.	0r	.	0r
4r	.	.	4r	.	.	.	.	.	.	.	.	.	.	.	.	.	.	.	.	.	.	.	.	.	.	.	.	.	.	.	.	.
.	.	.	.	.	8f/	.	8a/	.	.	.	.	.	.	.	.	.	.	.	.	.	.	.	.	.	.	.	.	.	.	.	.	.
!	!	!	!	!	!	!	!LO:LB:g=original	!	!	!	!	!	!	!	!	!	!	!	!	!	!	!	!	!	!	!	!	!	!	!	!	!
2C/	5	.	2c\	.	8e/L	.	8g|/L	.	.	.	.	.	.	.	.	.	.	.	.	.	.	.	.	.	.	.	.	.	.	.	.	.
.	.	.	.	.	8e/	.	8g|/	.	.	.	.	.	.	.	.	.	.	.	.	.	.	.	.	.	.	.	.	.	.	.	.	.
.	.	.	.	.	8f/	.	(8a/	.	.	.	.	.	.	.	.	.	.	.	.	.	.	.	.	.	.	.	.	.	.	.	.	.
.	.	.	.	.	8g/J	.	8b-/J)	.	.	.	.	.	.	.	.	.	.	.	.	.	.	.	.	.	.	.	.	.	.	.	.	.
=6	=6	=6	=6	=6	=6	=6	=6	=6	=6	=6	=6	=6	=6	=6	=6	=6	=6	=6	=6	=6	=6	=6	=6	=6	=6	=6	=6	=6	=6	=6	=6	=6
!	!	!	!LO:LB:g=original	!	!	!	!	!	!	!	!	!	!	!	!	!	!	!	!	!	!	!	!	!	!	!	!	!	!	!	!	!
2F\	3	.	2f\	.	8f/L	.	(8a\L	.	1r	.	1r	.	1r	.	.	.	1ryy	.	.	.	.	.	.	.	.	.	.	.	.	.	.	.
.	.	.	.	.	8g/	.	8b-\)	.	.	.	.	.	.	.	.	.	.	.	.	.	.	.	.	.	.	.	.	.	.	.	.	.
.	.	.	.	.	8g#X/	.	(8bn\	.	.	.	.	.	.	.	.	.	.	.	.	.	.	.	.	.	.	.	.	.	.	.	.	.
.	.	.	.	.	8a/J	.	8cc\J)	.	.	.	.	.	.	.	.	.	.	.	.	.	.	.	.	.	.	.	.	.	.	.	.	.
2BB-X/	6	.	2B-X/	.	4b-/	.	8dd\L	.	.	.	.	.	.	.	.	.	.	.	.	.	.	.	.	.	.	.	.	.	.	.	.	.
.	.	.	.	.	.	.	8a\J	.	.	.	.	.	.	.	.	.	.	.	.	.	.	.	.	.	.	.	.	.	.	.	.	.
.	.	.	.	.	8d/L	.	8b-X/L	.	.	.	.	.	.	.	.	.	.	.	.	.	.	.	.	.	.	.	.	.	.	.	.	.
.	.	.	.	.	8B-/J	.	8g/J	.	.	.	.	.	.	.	.	.	.	.	.	.	.	.	.	.	.	.	.	.	.	.	.	.
=7	=7	=7	=7	=7	=7	=7	=7	=7	=7	=7	=7	=7	=7	=7	=7	=7	=7	=7	=7	=7	=7	=7	=7	=7	=7	=7	=7	=7	=7	=7	=7	=7
!LO:LB:g=original	!	!	!	!	!	!	!	!	!	!	!	!	!	!	!	!	!	!	!	!	!	!	!	!	!	!	!	!	!	!	!	!
4r	.	.	4r	.	4A/	.	4f/	.	1r	.	1r	.	1r	.	.	.	1ryy	.	1r	1r	.	1r	.	1r	.	1r	.	1r	.	1r	.	1r
4C/	6_ 4_	.	4c\	.	2A/	.	2f/	.	.	.	.	.	.	.	.	.	.	.	.	.	.	.	.	.	.	.	.	.	.	.	.	.
4C/	.	.	4c\	.	.	.	.	.	.	.	.	.	.	.	.	.	.	.	.	.	.	.	.	.	.	.	.	.	.	.	.	.
4C/	5 3	.	4c\	.	8c/L	.	8a/L	.	.	.	.	.	.	.	.	.	.	.	.	.	.	.	.	.	.	.	.	.	.	.	.	.
.	.	.	.	.	8B-/J	.	8g/J	.	.	.	.	.	.	.	.	.	.	.	.	.	.	.	.	.	.	.	.	.	.	.	.	.
=8	=8	=8	=8	=8	=8	=8	=8	=8	=8	=8	=8	=8	=8	=8	=8	=8	=8	=8	=8	=8	=8	=8	=8	=8	=8	=8	=8	=8	=8	=8	=8	=8
!	!	!LO:DY:rj:b	!	!	!	!	!LO:TX:t=P:problem=mixed beam	!	!	!	!	!	!	!	!	!	!	!	!	!	!LO:DY:t=p	!	!LO:DY:rj:t=p	!	!LO:DY:rj:b:Bi:t=p	!	!	!	!LO:DY:b:rj	!	!	!
4F\	3	rf	8r	.	8A/L	.	(8f/L	.	1r	.	1r	.	1r	.	.	.	1ryy	.	1F	1f	p	1A	p	1c	p	1a	p	1cc	p	1aa	p	1ccc
.	.	.	8a\L	.	8f/ 8cc	.	8ff\	.	.	.	.	.	.	.	.	.	.	.	.	.	.	.	.	.	.	.	.	.	.	.	.	.
4r	.	.	8a\	.	8f/ 8cc	.	8aa\	.	.	.	.	.	.	.	.	.	.	.	.	.	.	.	.	.	.	.	.	.	.	.	.	.
.	.	.	8a\J	.	8f/J 8cc	.	8gg\J)	.	.	.	.	.	.	.	.	.	.	.	.	.	.	.	.	.	.	.	.	.	.	.	.	.
4F\	3	.	8r	.	8r	.	(8ff\L	.	.	.	.	.	.	.	.	.	.	.	.	.	.	.	.	.	.	.	.	.	.	.	.	.
.	.	.	8a\L	.	8f/L 8cc	.	8ee\	.	.	.	.	.	.	.	.	.	.	.	.	.	.	.	.	.	.	.	.	.	.	.	.	.
4r	.	.	8a\	.	8f/ 8cc	.	8dd\	.	.	.	.	.	.	.	.	.	.	.	.	.	.	.	.	.	.	.	.	.	.	.	.	.
.	.	.	8a\J	.	8f/J 8cc	.	8cc#X\J)	.	.	.	.	.	.	.	.	.	.	.	.	.	.	.	.	.	.	.	.	.	.	.	.	.
=9	=9	=9	=9	=9	=9	=9	=9	=9	=9	=9	=9	=9	=9	=9	=9	=9	=9	=9	=9	=9	=9	=9	=9	=9	=9	=9	=9	=9	=9	=9	=9	=9
4B-\	3	.	8r	.	8r	.	8r	.	1r	.	1r	.	1r	.	00r	.	1ryy	00ryy	1F	1g	.	1B-	.	8r	.	1b-	.	8r	.	1bb-	.	8r
.	.	.	8f\L	.	8f/L 8b-	.	8dd|\L	.	.	.	.	.	.	.	.	.	.	.	.	.	.	.	.	8d\L	.	.	.	8dd\L	.	.	.	8ddd\L
4r	.	.	8f\	.	8f/ 8b-	.	8dd|\	.	.	.	.	.	.	.	.	.	.	.	.	.	.	.	.	8f\	.	.	.	8ff\	.	.	.	8fff\
.	.	.	8f\J	.	8f/J 8b-	.	8dd|\J	.	.	.	.	.	.	.	.	.	.	.	.	.	.	.	.	8e\J	.	.	.	8ee\J	.	.	.	8eee\J
!	!	!	!	!	!	!	!	!	!	!	!	!	!	!	!	!	!	!	!	!	!	!	!	!	!	!	!	!	!	!	!	!LO:LB:g=original
4B-\	_	.	8r	.	8r	.	8r	.	.	.	.	.	.	.	.	.	.	.	.	.	.	.	.	8d\L	.	.	.	8dd\L	.	.	.	8ddd\L
.	.	.	8f\L	.	8f/L 8b-	.	8dd\L	.	.	.	.	.	.	.	.	.	.	.	.	.	.	.	.	8c\	.	.	.	8cc\	.	.	.	8ccc\
4r	.	.	8f\	.	8f/ 8b-	.	8dd\	.	.	.	.	.	.	.	.	.	.	.	.	.	.	.	.	8B-\	.	.	.	8b-\	.	.	.	8bb-\
.	.	.	8f\J	.	8f/J 8b-	.	8dd\J	.	.	.	.	.	.	.	.	.	.	.	.	.	.	.	.	8A\J	.	.	.	8a\J	.	.	.	8aa\J
=10	=10	=10	=10	=10	=10	=10	=10	=10	=10	=10	=10	=10	=10	=10	=10	=10	=10	=10	=10	=10	=10	=10	=10	=10	=10	=10	=10	=10	=10	=10	=10	=10
!	!	!	!	!	!	!	!	!	!	!	!	!	!	!	!	!	!	!	!	!	!	!	!	!	!	!	!	!LO:TX:t=P:problem=mixed beam	!	!	!	!
4c\	3	.	8r	.	8r	.	8r	.	1r	.	1r	.	1r	.	.	.	1ryy	.	1c	1g	.	1G	.	8G\L	.	1g	.	8g/L	.	1gg	.	8gg\L
.	.	.	8c\L	.	8g/L 8b-	.	8ee\L	.	.	.	.	.	.	.	.	.	.	.	.	.	.	.	.	8e\	.	.	.	8ee\	.	.	.	8bb-\
4r	.	.	8c\	.	8g/ 8b-	.	8ee\	.	.	.	.	.	.	.	.	.	.	.	.	.	.	.	.	8g\	.	.	.	8gg\	.	.	.	8ggg\
.	.	.	8c\J	.	8g/J 8b-	.	8ee\J	.	.	.	.	.	.	.	.	.	.	.	.	.	.	.	.	8f\J	.	.	.	8ff\J	.	.	.	8fff\J
4C/	7	.	8r	.	8r	.	8r	.	.	.	.	.	.	.	.	.	.	.	.	.	.	.	.	8e\L	.	.	.	8ee\L	.	.	.	8eee\L
!	!	!	!	!	!LO:LB:g=original	!	!	!	!	!	!	!	!	!	!	!	!	!	!	!	!	!	!	!	!	!	!	!	!	!	!	!
.	.	.	8c\L	.	8g/L 8b-	.	8ee\L	.	.	.	.	.	.	.	.	.	.	.	.	.	.	.	.	8d\	.	.	.	8dd\	.	.	.	8ddd\
4r	.	.	8c\	.	8g/ 8b-	.	8ee\	.	.	.	.	.	.	.	.	.	.	.	.	.	.	.	.	8c\	.	.	.	8cc\	.	.	.	8ccc\
.	.	.	8c\J	.	8g/J 8b-	.	8ee\J	.	.	.	.	.	.	.	.	.	.	.	.	.	.	.	.	8B-\J	.	.	.	8b-\J	.	.	.	8bb-\J
=11	=11	=11	=11	=11	=11	=11	=11	=11	=11	=11	=11	=11	=11	=11	=11	=11	=11	=11	=11	=11	=11	=11	=11	=11	=11	=11	=11	=11	=11	=11	=11	=11
!	!	!	!	!	!	!	!LO:LB:g=original	!	!	!	!	!	!	!	!	!	!	!	!	!	!	!	!	!LO:LB:g=original	!	!	!	!	!	!	!	!
4F\	3	.	4f\	.	8r	.	8r	.	1r	.	1r	.	1r	.	.	.	1ryy	.	4F/	4f\	.	2F\	.	2A\	.	2f/	.	2a/	.	2ff\	.	2aa\
.	.	.	.	.	8a/L	.	8ff|\L	.	.	.	.	.	.	.	.	.	.	.	.	.	.	.	.	.	.	.	.	.	.	.	.	.
4r	.	.	4r	.	8a/	.	(8cc\	.	.	.	.	.	.	.	.	.	.	.	4r	4r	.	.	.	.	.	.	.	.	.	.	.	.
.	.	.	.	.	8f/J	.	8a\J)	.	.	.	.	.	.	.	.	.	.	.	.	.	.	.	.	.	.	.	.	.	.	.	.	.
!	!	!	!	!	!	!	!	!	!	!	!	!	!	!	!	!	!	!	!	!	!	!LO:LB:g=original	!	!	!	!	!	!	!	!	!	!
4BB-/	6	.	4B-/	.	8r	.	8r	.	.	.	.	.	.	.	.	.	.	.	4r	2r	.	4D\	.	4G\	.	4dd\	.	4g/	.	4dd\	.	4gg\
.	.	.	.	.	8d/L	.	8g|\L	.	.	.	.	.	.	.	.	.	.	.	.	.	.	.	.	.	.	.	.	.	.	.	.	.
4r	.	.	4r	.	8d/	.	(8b-\	.	.	.	.	.	.	.	.	.	.	.	4r	.	.	8d\L	.	8B-\L	.	8dd\L	.	8b-\L	.	8dd\L	.	8bb-\L
.	.	.	.	.	8B-/J	.	8dd\J)	.	.	.	.	.	.	.	.	.	.	.	.	.	.	8B-\J	.	8d\J	.	8b-\J	.	8dd\J	.	8b-\J	.	8ddd\J
=12	=12	=12	=12	=12	=12	=12	=12	=12	=12	=12	=12	=12	=12	=12	=12	=12	=12	=12	=12	=12	=12	=12	=12	=12	=12	=12	=12	=12	=12	=12	=12	=12
!	!	!	!	!	!	!	!	!	!	!	!	!	!	!	!	!	!	!	!	!	!	!	!	!	!	!	!	!LO:LB:g=original	!	!	!	!
4r	.	.	4r	.	4A/	.	4cc\	.	1r	.	1r	.	1r	.	.	.	1ryy	.	4r	4r	.	4r	.	4r	.	4r	.	4r	.	4r	.	4r
4C/	6_ 4_	.	4c\	.	4.A/	.	4.f/	.	.	.	.	.	.	.	.	.	.	.	2f\	2a\	.	2A\	.	2c\	.	2a/	.	2cc\	.	2a/	.	2ccc\
4C/	.	.	4c\	.	.	.	.	.	.	.	.	.	.	.	.	.	.	.	.	.	.	.	.	.	.	.	.	.	.	.	.	.
.	.	.	.	.	8c/L	.	8a|/L	.	.	.	.	.	.	.	.	.	.	.	.	.	.	.	.	.	.	.	.	.	.	.	.	.
4C/	5 3	.	4c\	.	8B-/	.	(8g/	.	.	.	.	.	.	.	.	.	.	.	4c/	4g\	.	4B-\	.	4e\	.	4b-/	.	4ee\	.	4b-/	.	4ee\
.	.	.	.	.	8G/J	.	8e/J)	.	.	.	.	.	.	.	.	.	.	.	.	.	.	.	.	.	.	.	.	.	.	.	.	.
=13	=13	=13	=13	=13	=13	=13	=13	=13	=13	=13	=13	=13	=13	=13	=13	=13	=13	=13	=13	=13	=13	=13	=13	=13	=13	=13	=13	=13	=13	=13	=13	=13
!	!	!	!LO:LB:g=original	!	!	!	!	!	!	!	!	!	!	!	!	!	!	!	!LO:LB:g=original	!	!	!	!	!	!	!	!	!	!	!	!	!
4F\	1	.	4f\	.	8A/L	.	8f|/L	.	1r	.	1r	.	1r	.	0r	.	1ryy	1ryy	2A/	2f\	.	4A\	.	4f\	.	4a/	.	4ff\	.	4a/	.	4ff\
.	.	.	.	.	8a/	.	(8cc/	.	.	.	.	.	.	.	.	.	.	.	.	.	.	.	.	.	.	.	.	.	.	.	.	.
4r	.	.	4r	.	8b-/	.	8dd/	.	.	.	.	.	.	.	.	.	.	.	.	.	.	4r	.	4r	.	4r	.	4r	.	4r	.	4r
.	.	.	.	.	8a/J	.	8cc/J)	.	.	.	.	.	.	.	.	.	.	.	.	.	.	.	.	.	.	.	.	.	.	.	.	.
2C/	7	.	8r	.	8g/L	.	4.cc/	.	.	.	.	.	.	.	.	.	.	.	2c/	2g\	.	2B-\	.	8r	.	2b-\	.	8r	.	2bb-\	.	8r
.	.	.	8G/L	.	8e/	.	.	.	.	.	.	.	.	.	.	.	.	.	.	.	.	.	.	8c\L	.	.	.	8cc\L	.	.	.	8ccc\L
.	.	.	8A/	.	8f/	.	.	.	.	.	.	.	.	.	.	.	.	.	.	.	.	.	.	8d\	.	.	.	8dd\	.	.	.	8ddd\
.	.	.	8B-/J	.	8g/J	.	8e/	.	.	.	.	.	.	.	.	.	.	.	.	.	.	.	.	8e\J	.	.	.	8ee\J	.	.	.	8eee\J
=14	=14	=14	=14	=14	=14	=14	=14	=14	=14	=14	=14	=14	=14	=14	=14	=14	=14	=14	=14	=14	=14	=14	=14	=14	=14	=14	=14	=14	=14	=14	=14	=14
!LO:LB:g=original	!	!	!LO:TX:t=P:problem=brak t. 14	!	!	!	!	!	!	!	!	!	!	!	!	!	!	!	!	!	!	!	!	!	!	!	!	!	!	!	!	!
4F\	3	.	1ryy	.	8f/L	.	8f|/L	.	1r	.	1r	.	1r	.	.	.	1ryy	1ryy	2A/	2f\	.	4A\	.	4f\	.	4a/	.	4ff\	.	4aa\	.	4fff\
.	.	.	.	.	8a/	.	(8cc/	.	.	.	.	.	.	.	.	.	.	.	.	.	.	.	.	.	.	.	.	.	.	.	.	.
4r	.	.	.	.	8b-/	.	8dd/	.	.	.	.	.	.	.	.	.	.	.	.	.	.	4r	.	4r	.	4r	.	4r	.	4r	.	4r
.	.	.	.	.	8a/J	.	8cc/J)	.	.	.	.	.	.	.	.	.	.	.	.	.	.	.	.	.	.	.	.	.	.	.	.	.
2C/	7	.	.	.	8g/L	.	4.cc/	.	.	.	.	.	.	.	.	.	.	.	2c/	2g\	.	2B-\	.	8r	.	2b-\	.	8r	.	2bb-\	.	8r
.	.	.	.	.	8e/	.	.	.	.	.	.	.	.	.	.	.	.	.	.	.	.	.	.	8c\L	.	.	.	8cc\L	.	.	.	8ccc\L
.	.	.	.	.	8f/	.	.	.	.	.	.	.	.	.	.	.	.	.	.	.	.	.	.	8d\	.	.	.	8dd\	.	.	.	8ddd\
.	.	.	.	.	8g/J	.	8e/	.	.	.	.	.	.	.	.	.	.	.	.	.	.	.	.	8e\J	.	.	.	8ee\J	.	.	.	8eee\J
=15	=15	=15	=15	=15	=15	=15	=15	=15	=15	=15	=15	=15	=15	=15	=15	=15	=15	=15	=15	=15	=15	=15	=15	=15	=15	=15	=15	=15	=15	=15	=15	=15
!	!	!	!	!	!	!	!	!	!	!	!	!	!	!	!	!	!	!	!	!	!	!	!	!	!	!	!	!	!	!	!	!LO:LB:g=original
2C/	5 3	.	2c\	.	2B-/	.	2g/	.	1r	.	1r	.	1r	.	1r	.	1ryy	1ryy	2c/	2g\	.	2B-\	.	2g\	.	2b-\	.	2ee\	.	2gg\	.	2eee\
4FF/	3	.	4c\	.	4A/	.	4f/	.	.	.	.	.	.	.	.	.	.	.	4A/	4f\	.	4A\	.	4f\	.	4a\	.	4ff\	.	4aa\	.	4fff\
4r	.	.	4r	.	4B-/	.	4g/	.	.	.	.	.	.	.	.	.	.	.	4r	4r	.	4r	.	4r	.	4r	.	4r	.	4r	.	4r
=16	=16	=16	=16	=16	=16	=16	=16	=16	=16	=16	=16	=16	=16	=16	=16	=16	=16	=16	=16	=16	=16	=16	=16	=16	=16	=16	=16	=16	=16	=16	=16	=16
!	!	!	!	!	!	!	!	!	!	!	!	!	!	!	!LO:TX:a:t=Solo	!	!	!	!	!	!	!	!	!	!	!	!	!	!	!	!	!
!	!	!LO:DY:b:Bi:t=p&colon;	!	!	!	!	!	!LO:DY:b:	!	!	!	!	!	!	!	!	!	!	!LO:TX:a:t=27	!LO:TX:a:t=27	!	!LO:TX:a:t=27.	!	!LO:TX:a:t=27.	!	!LO:TX:a:t=27.	!	!LO:TX:a:t=27.	!	!LO:TX:a:t=27.	!	!LO:TX:a:t=27.
2F\	3	p	4f\	.	2c/	.	2a/	p	1r	.	1r	.	1r	.	2a\	Et	1ryy	1ryy	1r	1r	.	00r	.	00r	.	1r	.	1r	.	1r	.	00r
.	.	.	4r	.	.	.	.	.	.	.	.	.	.	.	.	.	.	.	.	.	.	.	.	.	.	.	.	.	.	.	.	.
!	!	!	!	!	!LO:LB:g=original	!	!	!	!	!	!	!	!	!	!	!	!	!	!	!	!	!	!	!	!	!	!	!	!	!	!	!
2C/	5	.	4c\	.	8.B-/L	.	(8.g|/L	.	.	.	.	.	.	.	8.g\	in-	.	.	.	.	.	.	.	.	.	.	.	.	.	.	.	.
.	.	.	.	.	16A/K	.	16f|/K	.	.	.	.	.	.	.	16f\	-car-	.	.	.	.	.	.	.	.	.	.	.	.	.	.	.	.
.	.	.	4r	.	8.B-/	.	8.g|/	.	.	.	.	.	.	.	8.g\	-na-	.	.	.	.	.	.	.	.	.	.	.	.	.	.	.	.
.	.	.	.	.	16c/Jk	.	16a|/Jk)	.	.	.	.	.	.	.	16a\	-tus	.	.	.	.	.	.	.	.	.	.	.	.	.	.	.	.
=17	=17	=17	=17	=17	=17	=17	=17	=17	=17	=17	=17	=17	=17	=17	=17	=17	=17	=17	=17	=17	=17	=17	=17	=17	=17	=17	=17	=17	=17	=17	=17	=17
4FF/	8	.	4F/	.	4A/	.	4f|/	.	1r	.	1r	.	1r	.	4f/	est	1ryy	1ryy	1r	1r	.	.	.	.	.	1r	.	1r	.	1r	.	.
4r	.	.	4r	.	4A/	.	4c|/	.	.	.	.	.	.	.	4r	.	.	.	.	.	.	.	.	.	.	.	.	.	.	.	.	.
2r	.	.	2r	.	4c/	.	(4f/	.	.	.	.	.	.	.	4r	.	.	.	.	.	.	.	.	.	.	.	.	.	.	.	.	.
.	.	.	.	.	4f/	.	4a/)	.	.	.	.	.	.	.	4a\	de	.	.	.	.	.	.	.	.	.	.	.	.	.	.	.	.
=18	=18	=18	=18	=18	=18	=18	=18	=18	=18	=18	=18	=18	=18	=18	=18	=18	=18	=18	=18	=18	=18	=18	=18	=18	=18	=18	=18	=18	=18	=18	=18	=18
!	!	!	!	!	!	!	!	!	!	!	!	!	!	!	!LO:LB:g=original	!	!	!	!	!	!	!	!	!	!	!	!	!	!	!	!	!
4F\	5	.	4f\	.	4a/	.	4cc\	.	1r	.	1r	.	1r	.	(4cc\	Spi-	1ryy	1ryy	1r	1r	.	.	.	.	.	1r	.	1r	.	1r	.	.
4E-X\	4	.	4e-X\	.	4f/	.	4a\	.	.	.	.	.	.	.	4a\)	.	.	.	.	.	.	.	.	.	.	.	.	.	.	.	.	.
4D\	6	.	4d\	.	8.g/L	.	(8.b-\L	.	.	.	.	.	.	.	4b-\	-ri-	.	.	.	.	.	.	.	.	.	.	.	.	.	.	.	.
.	.	.	.	.	16g/K	.	16b-\K	.	.	.	.	.	.	.	.	.	.	.	.	.	.	.	.	.	.	.	.	.	.	.	.	.
4BB-/	8	.	4B-\	.	8a/	.	8.cc\	.	.	.	.	.	.	.	(8cc\L	-tu	.	.	.	.	.	.	.	.	.	.	.	.	.	.	.	.
.	.	.	.	.	8b-/J	.	.	.	.	.	.	.	.	.	8dd\J)	.	.	.	.	.	.	.	.	.	.	.	.	.	.	.	.	.
.	.	.	.	.	.	.	16dd\Jk)	.	.	.	.	.	.	.	.	.	.	.	.	.	.	.	.	.	.	.	.	.	.	.	.	.
=19	=19	=19	=19	=19	=19	=19	=19	=19	=19	=19	=19	=19	=19	=19	=19	=19	=19	=19	=19	=19	=19	=19	=19	=19	=19	=19	=19	=19	=19	=19	=19	=19
4C/	5	.	4c\	.	4e/	.	4g/	.	1r	.	1r	.	1r	.	(4g\	Sanc-	1ryy	1ryy	1r	1r	.	.	.	.	.	1r	.	1r	.	1r	.	.
.	.	.	.	.	8qg/	.	8qb-/	.	.	.	.	.	.	.	8qqb-/	.	.	.	.	.	.	.	.	.	.	.	.	.	.	.	.	.
4BBn/	7	.	4Bn\	.	4f/	.	4a/	.	.	.	.	.	.	.	4a\)	.	.	.	.	.	.	.	.	.	.	.	.	.	.	.	.	.
4C/	5	.	4c\	.	4e/	.	4g/	.	.	.	.	.	.	.	4g\	-to	.	.	.	.	.	.	.	.	.	.	.	.	.	.	.	.
4r	.	.	4r	.	4r	.	4r	.	.	.	.	.	.	.	4r	.	.	.	.	.	.	.	.	.	.	.	.	.	.	.	.	.
=20	=20	=20	=20	=20	=20	=20	=20	=20	=20	=20	=20	=20	=20	=20	=20	=20	=20	=20	=20	=20	=20	=20	=20	=20	=20	=20	=20	=20	=20	=20	=20	=20
!	!	!	!	!	!	!	!	!LO:DY:b	!	!	!	!	!	!	!	!	!	!	!	!	!	!	!	!	!	!	!	!	!	!	!	!
4GG/	7 n	.	8r	.	8r	.	8r	p	1r	.	1r	.	1r	.	2.g\	ex	1ryy	1ryy	1r	1r	.	00r	.	00r	.	1r	.	1r	.	1r	.	00r
.	.	.	8G/L	.	8Bn/L	.	8d/L	.	.	.	.	.	.	.	.	.	.	.	.	.	.	.	.	.	.	.	.	.	.	.	.	.
4r	.	.	8G/	.	8d/	.	8f/	.	.	.	.	.	.	.	.	.	.	.	.	.	.	.	.	.	.	.	.	.	.	.	.	.
.	.	.	8G/J	.	8c/J	.	8e/J	.	.	.	.	.	.	.	.	.	.	.	.	.	.	.	.	.	.	.	.	.	.	.	.	.
4G\	.	.	8r	.	8r	.	8r	.	.	.	.	.	.	.	.	.	.	.	.	.	.	.	.	.	.	.	.	.	.	.	.	.
.	.	.	8G/L	.	8B/L	.	8d/L	.	.	.	.	.	.	.	.	.	.	.	.	.	.	.	.	.	.	.	.	.	.	.	.	.
4r	.	.	8G/	.	8c/	.	8e/	.	.	.	.	.	.	.	(8a\L	Ma-	.	.	.	.	.	.	.	.	.	.	.	.	.	.	.	.
.	.	.	8G/J	.	8d/J	.	8f/J	.	.	.	.	.	.	.	8bn\J)	.	.	.	.	.	.	.	.	.	.	.	.	.	.	.	.	.
=21	=21	=21	=21	=21	=21	=21	=21	=21	=21	=21	=21	=21	=21	=21	=21	=21	=21	=21	=21	=21	=21	=21	=21	=21	=21	=21	=21	=21	=21	=21	=21	=21
*	*	*	*	*	*	*	*^	*	*	*	*	*	*	*	*	*	*	*	*	*	*	*	*	*	*	*	*	*	*	*	*	*
!LO:LB:g=original	!	!	!	!	!	!	!	!	!	!	!	!	!	!	!	!	!	!	!	!	!	!	!	!	!	!	!	!	!	!	!	!	!
4C/	3	.	8r	.	8r	.	8re	2rFyy	.	1r	.	1r	.	1r	.	(8dd\L	-ri-	1ryy	1ryy	1r	1r	.	.	.	.	.	1r	.	1r	.	1r	.	.
.	.	.	8G/L	.	8c/L	.	8G/L 8e	.	.	.	.	.	.	.	.	8cc\J)	.	.	.	.	.	.	.	.	.	.	.	.	.	.	.	.	.
4r	.	.	8G/	.	8c/	.	8G/ 8e	.	.	.	.	.	.	.	.	2cc\	-a	.	.	.	.	.	.	.	.	.	.	.	.	.	.	.	.
.	.	.	8G/J	.	8c/J	.	8G/J 8e	.	.	.	.	.	.	.	.	.	.	.	.	.	.	.	.	.	.	.	.	.	.	.	.	.	.
4c\	.	.	8r	.	8r	.	8r	8rcyy	.	.	.	.	.	.	.	.	.	.	.	.	.	.	.	.	.	.	.	.	.	.	.	.	.
.	.	.	8G/L	.	8c/L	.	8e/L	4.G/	.	.	.	.	.	.	.	.	.	.	.	.	.	.	.	.	.	.	.	.	.	.	.	.	.
4r	.	.	8G/	.	8c/	.	8e/	.	.	.	.	.	.	.	.	8dd\L	Ma-	.	.	.	.	.	.	.	.	.	.	.	.	.	.	.	.
.	.	.	8G/J	.	8c/J	.	8e/J	.	.	.	.	.	.	.	.	8ee\J	.	.	.	.	.	.	.	.	.	.	.	.	.	.	.	.	.
=22	=22	=22	=22	=22	=22	=22	=22	=22	=22	=22	=22	=22	=22	=22	=22	=22	=22	=22	=22	=22	=22	=22	=22	=22	=22	=22	=22	=22	=22	=22	=22	=22	=22
!	!	!	!LO:LB:g=original	!	!LO:PB:g=original	!	!	!	!	!	!	!	!	!	!	!	!	!	!	!	!	!	!	!	!	!	!	!	!	!	!	!	!
4G\	7	.	8r	.	8r	.	8re	2rFyy]	.	1r	.	1r	.	1r	.	4.ff\	-ri-	1ryy	1ryy	1r	1r	.	.	.	.	.	1r	.	1r	.	1r	.	.
.	.	.	8Bn/L	.	8G/L 8d	.	8G/L 8f	.	.	.	.	.	.	.	.	.	.	.	.	.	.	.	.	.	.	.	.	.	.	.	.	.	.
4r	.	.	8B/	.	8d/	.	8G/ 8f	.	.	.	.	.	.	.	.	.	.	.	.	.	.	.	.	.	.	.	.	.	.	.	.	.	.
.	.	.	8B/J	.	8d/J	.	8G/J 8f	.	.	.	.	.	.	.	.	8dd\	-a	.	.	.	.	.	.	.	.	.	.	.	.	.	.	.	.
4G\	.	.	8r	.	8r	.	8r	8rcyy	.	.	.	.	.	.	.	4bn\	vir-	.	.	.	.	.	.	.	.	.	.	.	.	.	.	.	.
.	.	.	8B/L	.	8G/L 8d	.	8f/L	4.G/	.	.	.	.	.	.	.	.	.	.	.	.	.	.	.	.	.	.	.	.	.	.	.	.	.
4r	.	.	8B/	.	8d/	.	8f/	.	.	.	.	.	.	.	.	4f/	-gi-	.	.	.	.	.	.	.	.	.	.	.	.	.	.	.	.
.	.	.	8B/J	.	8d/J	.	8f/J	.	.	.	.	.	.	.	.	.	.	.	.	.	.	.	.	.	.	.	.	.	.	.	.	.	.
=23	=23	=23	=23	=23	=23	=23	=23	=23	=23	=23	=23	=23	=23	=23	=23	=23	=23	=23	=23	=23	=23	=23	=23	=23	=23	=23	=23	=23	=23	=23	=23	=23	=23
!	!	!	!	!	!	!	!LO:LB:g=original	!	!	!	!	!	!	!	!	!LO:LB:g=original	!	!	!	!	!	!	!	!	!	!	!	!	!	!	!	!	!
4C/	3.	.	8r	.	8r	.	8r	8rFyy	.	1r	.	1r	.	1r	.	2e/	-ne	1ryy	1ryy	1r	1r	.	.	.	.	.	1r	.	1r	.	1r	.	.
.	.	.	8G/L	.	8c/L	.	8e/L	4.G/	.	.	.	.	.	.	.	.	.	.	.	.	.	.	.	.	.	.	.	.	.	.	.	.	.
4r	.	.	8G/	.	8c/	.	8e/	.	.	.	.	.	.	.	.	.	.	.	.	.	.	.	.	.	.	.	.	.	.	.	.	.	.
.	.	.	8G/J	.	8c/J	.	8e/J	.	.	.	.	.	.	.	.	.	.	.	.	.	.	.	.	.	.	.	.	.	.	.	.	.	.
4C/	.	.	8r	.	8r	.	8r	8rcyy	.	.	.	.	.	.	.	2r	.	.	.	.	.	.	.	.	.	.	.	.	.	.	.	.	.
.	.	.	8G/L	.	8c/L	.	8e/L	4.G/	.	.	.	.	.	.	.	.	.	.	.	.	.	.	.	.	.	.	.	.	.	.	.	.	.
4r	.	.	8G/	.	8c/	.	8e/	.	.	.	.	.	.	.	.	.	.	.	.	.	.	.	.	.	.	.	.	.	.	.	.	.	.
.	.	.	8G/J	.	8c/J	.	8e/J	.	.	.	.	.	.	.	.	.	.	.	.	.	.	.	.	.	.	.	.	.	.	.	.	.	.
*	*	*	*	*	*	*	*v	*v	*	*	*	*	*	*	*	*	*	*	*	*	*	*	*	*	*	*	*	*	*	*	*	*	*
=24	=24	=24	=24	=24	=24	=24	=24	=24	=24	=24	=24	=24	=24	=24	=24	=24	=24	=24	=24	=24	=24	=24	=24	=24	=24	=24	=24	=24	=24	=24	=24	=24
4GG/	7 n	.	8r	.	8r	.	8r	.	1r	.	1r	.	1r	.	2.g\	ex	1ryy	1ryy	1r	1r	.	00r	.	00r	.	1r	.	1r	.	1r	.	00r
*	*	*	*tremolo	*	*	*	*	*	*	*	*	*	*	*	*	*	*	*	*	*	*	*	*	*	*	*	*	*	*	*	*	*
.	.	.	8G/L	.	8Bn/L	.	8d|/L	.	.	.	.	.	.	.	.	.	.	.	.	.	.	.	.	.	.	.	.	.	.	.	.	.
4r	.	.	8G/	.	8d/	.	(8f/	.	.	.	.	.	.	.	.	.	.	.	.	.	.	.	.	.	.	.	.	.	.	.	.	.
.	.	.	8G/J	.	8c/J	.	8e/J)	.	.	.	.	.	.	.	.	.	.	.	.	.	.	.	.	.	.	.	.	.	.	.	.	.
4G\	.	.	8r	.	8r	.	8r	.	.	.	.	.	.	.	.	.	.	.	.	.	.	.	.	.	.	.	.	.	.	.	.	.
.	.	.	8G/L	.	8B/L	.	8d|/L	.	.	.	.	.	.	.	.	.	.	.	.	.	.	.	.	.	.	.	.	.	.	.	.	.
4r	.	.	8G/	.	8c/	.	(8e/	.	.	.	.	.	.	.	8a\L	Ma-	.	.	.	.	.	.	.	.	.	.	.	.	.	.	.	.
.	.	.	8G/J	.	8d/J	.	8f/J)	.	.	.	.	.	.	.	8bn\J	.	.	.	.	.	.	.	.	.	.	.	.	.	.	.	.	.
!	!	!	!	!	!	!	!LO:TX:b:t=+	!	!	!	!	!	!	!	!	!	!	!	!	!	!	!	!	!	!	!	!	!	!	!	!	!
=25	=25	=25	=25	=25	=25	=25	=25	=25	=25	=25	=25	=25	=25	=25	=25	=25	=25	=25	=25	=25	=25	=25	=25	=25	=25	=25	=25	=25	=25	=25	=25	=25
*	*	*	*	*	*	*	*^	*	*	*	*	*	*	*	*	*	*	*	*	*	*	*	*	*	*	*	*	*	*	*	*	*
4C/	3	.	8r	.	8r	.	8r	8rFyy	.	1r	.	1r	.	1r	.	8dd\L	-ri-	1ryy	1ryy	1r	1r	.	.	.	.	.	1r	.	1r	.	1r	.	.
.	.	.	8G/L	.	8c/L	.	8e/L	4.G/	.	.	.	.	.	.	.	8cc\J	.	.	.	.	.	.	.	.	.	.	.	.	.	.	.	.	.
4r	.	.	8G/	.	8c/	.	8e/	.	.	.	.	.	.	.	.	2cc\	-a	.	.	.	.	.	.	.	.	.	.	.	.	.	.	.	.
.	.	.	8G/J	.	8c/J	.	8e/J	.	.	.	.	.	.	.	.	.	.	.	.	.	.	.	.	.	.	.	.	.	.	.	.	.	.
4c\	.	.	8r	.	8r	.	8r	8rcyy	.	.	.	.	.	.	.	.	.	.	.	.	.	.	.	.	.	.	.	.	.	.	.	.	.
.	.	.	8G/L	.	8c/L	.	8e/L	4.G/	.	.	.	.	.	.	.	.	.	.	.	.	.	.	.	.	.	.	.	.	.	.	.	.	.
4r	.	.	8G/	.	8c/	.	8e/	.	.	.	.	.	.	.	.	8dd\L	Ma-	.	.	.	.	.	.	.	.	.	.	.	.	.	.	.	.
.	.	.	8G/J	.	8c/J	.	8e/J	.	.	.	.	.	.	.	.	8ee\J	.	.	.	.	.	.	.	.	.	.	.	.	.	.	.	.	.
=26	=26	=26	=26	=26	=26	=26	=26	=26	=26	=26	=26	=26	=26	=26	=26	=26	=26	=26	=26	=26	=26	=26	=26	=26	=26	=26	=26	=26	=26	=26	=26	=26	=26
4G\	7 n	.	8r	.	8r	.	8r	8rFyy	.	1r	.	1r	.	1r	.	4.ff\	-ri-	1ryy	1ryy	1r	1r	.	.	.	.	.	1r	.	1r	.	1r	.	.
*	*	*	*Xtremolo	*	*	*	*	*	*	*	*	*	*	*	*	*	*	*	*	*	*	*	*	*	*	*	*	*	*	*	*	*	*
.	.	.	8Bn/L	.	8G/L 8d	.	8f/L	4.G/	.	.	.	.	.	.	.	.	.	.	.	.	.	.	.	.	.	.	.	.	.	.	.	.	.
4r	.	.	8B/	.	8d/	.	8f/	.	.	.	.	.	.	.	.	.	.	.	.	.	.	.	.	.	.	.	.	.	.	.	.	.	.
.	.	.	8B/J	.	8d/J	.	8f/J	.	.	.	.	.	.	.	.	8dd\	-a	.	.	.	.	.	.	.	.	.	.	.	.	.	.	.	.
!	!	!	!	!	!	!	!	!	!	!	!	!	!	!	!	!LO:SIC:v:s=4bn\	!	!	!	!	!	!	!	!	!	!	!	!	!	!	!	!	!
4G\	.	.	8r	.	8r	.	8r	8rcyy	.	.	.	.	.	.	.	4b-\	vir-	.	.	.	.	.	.	.	.	.	.	.	.	.	.	.	.
*	*	*	*tremolo	*	*	*	*	*	*	*	*	*	*	*	*	*	*	*	*	*	*	*	*	*	*	*	*	*	*	*	*	*	*
.	.	.	8B/L	.	8G/L 8d	.	8f/L	4.G/	.	.	.	.	.	.	.	.	.	.	.	.	.	.	.	.	.	.	.	.	.	.	.	.	.
4r	.	.	8B/	.	8d/	.	8f/	.	.	.	.	.	.	.	.	4f/	-gi-	.	.	.	.	.	.	.	.	.	.	.	.	.	.	.	.
.	.	.	8B/J	.	8d/J	.	8f/J	.	.	.	.	.	.	.	.	.	.	.	.	.	.	.	.	.	.	.	.	.	.	.	.	.	.
=27	=27	=27	=27	=27	=27	=27	=27	=27	=27	=27	=27	=27	=27	=27	=27	=27	=27	=27	=27	=27	=27	=27	=27	=27	=27	=27	=27	=27	=27	=27	=27	=27	=27
!	!	!	!	!	!LO:LB:g=original	!	!	!	!	!	!	!	!	!	!	!	!	!	!	!	!	!	!	!	!	!	!	!	!	!	!	!	!
8r	.	.	8G/L	.	8r	.	8r	8rFyy	.	1r	.	1r	.	1r	.	2e/	-ne	1ryy	1ryy	1r	1r	.	.	.	.	.	1r	.	1r	.	1r	.	.
8C/L	3	.	8G/	.	8c/L	.	8e/L	4.G/	.	.	.	.	.	.	.	.	.	.	.	.	.	.	.	.	.	.	.	.	.	.	.	.	.
8C/	.	.	8G/J	.	8c/	.	8e/	.	.	.	.	.	.	.	.	.	.	.	.	.	.	.	.	.	.	.	.	.	.	.	.	.	.
8C/J	.	.	4G/	.	8c/J	.	8e/J	.	.	.	.	.	.	.	.	.	.	.	.	.	.	.	.	.	.	.	.	.	.	.	.	.	.
*	*	*	*	*	*	*	*v	*v	*	*	*	*	*	*	*	*	*	*	*	*	*	*	*	*	*	*	*	*	*	*	*	*	*
!LO:LB:g=original	!	!	!	!	!	!	!	!	!	!	!	!	!	!	!	!	!	!	!	!	!	!	!	!	!	!	!	!	!	!	!	!
4C/	.	.	.	.	4c/	.	4G/ 4e	.	.	.	.	.	.	.	4r	.	.	.	.	.	.	.	.	.	.	.	.	.	.	.	.	.
.	.	.	8r	.	.	.	.	.	.	.	.	.	.	.	.	.	.	.	.	.	.	.	.	.	.	.	.	.	.	.	.	.
4r	.	.	4r	.	4r	.	4r	.	.	.	.	.	.	.	8cc\L	et	.	.	.	.	.	.	.	.	.	.	.	.	.	.	.	.
.	.	.	.	.	.	.	.	.	.	.	.	.	.	.	8dd\J	.	.	.	.	.	.	.	.	.	.	.	.	.	.	.	.	.
=28	=28	=28	=28	=28	=28	=28	=28	=28	=28	=28	=28	=28	=28	=28	=28	=28	=28	=28	=28	=28	=28	=28	=28	=28	=28	=28	=28	=28	=28	=28	=28	=28
4c\	3	.	8r	.	8r	.	8r	.	1r	.	1r	.	1r	.	2ee\	Ho-	1ryy	1ryy	1r	1r	.	00r	.	00r	.	1r	.	1r	.	1r	.	00r
.	.	.	8c\L	.	8cc\L	.	8ee\L	.	.	.	.	.	.	.	.	.	.	.	.	.	.	.	.	.	.	.	.	.	.	.	.	.
4r	.	.	8c\	.	8cc\	.	8ee\	.	.	.	.	.	.	.	.	.	.	.	.	.	.	.	.	.	.	.	.	.	.	.	.	.
.	.	.	8c\J	.	8cc\J	.	8ee\J	.	.	.	.	.	.	.	.	.	.	.	.	.	.	.	.	.	.	.	.	.	.	.	.	.
4G#X\	5	.	8r	.	8r	.	8r	.	.	.	.	.	.	.	(4.dd\	-mo	.	.	.	.	.	.	.	.	.	.	.	.	.	.	.	.
!	!	!	!	!	!	!	!LO:TX:a:t=d	!	!	!	!	!	!	!	!	!	!	!	!	!	!	!	!	!	!	!	!	!	!	!	!	!
.	.	.	8g#X\L	.	8bn\L	.	8dd\L	.	.	.	.	.	.	.	.	.	.	.	.	.	.	.	.	.	.	.	.	.	.	.	.	.
4r	.	.	8g#X\	.	8b\	.	8dd\	.	.	.	.	.	.	.	.	.	.	.	.	.	.	.	.	.	.	.	.	.	.	.	.	.
.	.	.	8g#X\J	.	8b\J	.	8dd\J	.	.	.	.	.	.	.	8ee\)	.	.	.	.	.	.	.	.	.	.	.	.	.	.	.	.	.
=29	=29	=29	=29	=29	=29	=29	=29	=29	=29	=29	=29	=29	=29	=29	=29	=29	=29	=29	=29	=29	=29	=29	=29	=29	=29	=29	=29	=29	=29	=29	=29	=29
!	!	!	!LO:LB:g=original	!	!	!	!LO:PB:g=original	!	!	!	!	!	!	!	!LO:LB:g=original	!	!	!	!	!	!	!	!	!	!	!	!	!	!	!	!	!
4A\	3	.	8r	.	8r	.	8r	.	1r	.	1r	.	1r	.	2cc\	Ho-	1ryy	1ryy	1r	1r	.	.	.	.	.	1r	.	1r	.	1r	.	.
.	.	.	8a\L	.	8a/L	.	8cc\L	.	.	.	.	.	.	.	.	.	.	.	.	.	.	.	.	.	.	.	.	.	.	.	.	.
4r	.	.	8a\	.	8a/	.	8cc\	.	.	.	.	.	.	.	.	.	.	.	.	.	.	.	.	.	.	.	.	.	.	.	.	.
.	.	.	8a\J	.	8a/J	.	8cc\J	.	.	.	.	.	.	.	.	.	.	.	.	.	.	.	.	.	.	.	.	.	.	.	.	.
4E\	5	.	8r	.	8r	.	8r	.	.	.	.	.	.	.	(4.b-X\	-mo	.	.	.	.	.	.	.	.	.	.	.	.	.	.	.	.
.	.	.	8e\L	.	8g/L	.	8b-X\L	.	.	.	.	.	.	.	.	.	.	.	.	.	.	.	.	.	.	.	.	.	.	.	.	.
4r	.	.	8e\	.	8g/	.	8b-\	.	.	.	.	.	.	.	.	.	.	.	.	.	.	.	.	.	.	.	.	.	.	.	.	.
.	.	.	8e\J	.	8g/J	.	8b-\J	.	.	.	.	.	.	.	8cc\)	.	.	.	.	.	.	.	.	.	.	.	.	.	.	.	.	.
=30	=30	=30	=30	=30	=30	=30	=30	=30	=30	=30	=30	=30	=30	=30	=30	=30	=30	=30	=30	=30	=30	=30	=30	=30	=30	=30	=30	=30	=30	=30	=30	=30
2F\	3	.	2f\	.	8r	.	8r	.	1r	.	1r	.	1r	.	(4a\	et	1ryy	1ryy	1r	1r	.	.	.	.	.	1r	.	1r	.	1r	.	.
.	.	.	.	.	8a/L	.	8a|\L	.	.	.	.	.	.	.	.	.	.	.	.	.	.	.	.	.	.	.	.	.	.	.	.	.
.	.	.	.	.	8g#X/	.	(8b-\	.	.	.	.	.	.	.	8bn\L	.	.	.	.	.	.	.	.	.	.	.	.	.	.	.	.	.
.	.	.	.	.	8gn/J	.	8cc#X\J)	.	.	.	.	.	.	.	8cc#X\J)	.	.	.	.	.	.	.	.	.	.	.	.	.	.	.	.	.
4r	.	.	4r	.	8f/L	.	(8dd\L	.	.	.	.	.	.	.	(8dd\L	ho-	.	.	.	.	.	.	.	.	.	.	.	.	.	.	.	.
.	.	.	.	.	8g/	.	8ee\	.	.	.	.	.	.	.	8ee\J)	.	.	.	.	.	.	.	.	.	.	.	.	.	.	.	.	.
4F\	6	.	4f\	.	8a/	.	8ff\	.	.	.	.	.	.	.	(8ff\L	-mo	.	.	.	.	.	.	.	.	.	.	.	.	.	.	.	.
.	.	.	.	.	8f/J	.	8dd\J)	.	.	.	.	.	.	.	8dd\J)	.	.	.	.	.	.	.	.	.	.	.	.	.	.	.	.	.
=31	=31	=31	=31	=31	=31	=31	=31	=31	=31	=31	=31	=31	=31	=31	=31	=31	=31	=31	=31	=31	=31	=31	=31	=31	=31	=31	=31	=31	=31	=31	=31	=31
4G\	4	.	8r	.	8r	.	8r	.	1r	.	1r	.	1r	.	2.cc\	fac-	1ryy	1ryy	1r	1r	.	.	.	.	.	1r	.	1r	.	1r	.	.
.	.	.	8gn\L	.	8e/L	.	8cc\L	.	.	.	.	.	.	.	.	.	.	.	.	.	.	.	.	.	.	.	.	.	.	.	.	.
4r	.	.	8gn\	.	8e/	.	8cc\	.	.	.	.	.	.	.	.	.	.	.	.	.	.	.	.	.	.	.	.	.	.	.	.	.
.	.	.	8gn\J	.	8e/J	.	8cc\J	.	.	.	.	.	.	.	.	.	.	.	.	.	.	.	.	.	.	.	.	.	.	.	.	.
4GG/	n	.	8r	.	8r	.	8r	.	.	.	.	.	.	.	.	.	.	.	.	.	.	.	.	.	.	.	.	.	.	.	.	.
.	.	.	8G/L	.	8G/L 8f	.	8bn\L	.	.	.	.	.	.	.	.	.	.	.	.	.	.	.	.	.	.	.	.	.	.	.	.	.
4r	.	.	8G/	.	8f/	.	8b\	.	.	.	.	.	.	.	8ee\L	-tus	.	.	.	.	.	.	.	.	.	.	.	.	.	.	.	.
.	.	.	8G/J	.	8f/J	.	8b\J	.	.	.	.	.	.	.	8dd\J	.	.	.	.	.	.	.	.	.	.	.	.	.	.	.	.	.
=32	=32	=32	=32	=32	=32	=32	=32	=32	=32	=32	=32	=32	=32	=32	=32	=32	=32	=32	=32	=32	=32	=32	=32	=32	=32	=32	=32	=32	=32	=32	=32	=32
!	!	!	!	!	!LO:LB:g=original	!	!	!	!	!	!	!	!	!	!	!	!	!	!	!	!	!	!	!	!	!	!	!	!	!	!	!
4C/	1	.	8r	.	8r	.	8r	.	1r	.	1r	.	1r	.	2cc\	est	1ryy	1ryy	1r	1r	.	00r	.	00r	.	1r	.	1r	.	1r	.	00r
.	.	.	8G/L	.	8G/L 8e	.	8cc\L	.	.	.	.	.	.	.	.	.	.	.	.	.	.	.	.	.	.	.	.	.	.	.	.	.
4r	.	.	8G/	.	8e/	.	8cc\	.	.	.	.	.	.	.	.	.	.	.	.	.	.	.	.	.	.	.	.	.	.	.	.	.
.	.	.	8G/J	.	(>8e/J	.	8cc\J	.	.	.	.	.	.	.	.	.	.	.	.	.	.	.	.	.	.	.	.	.	.	.	.	.
4C/	.	.	8r	.	8r	.	8r	.	.	.	.	.	.	.	4r	.	.	.	.	.	.	.	.	.	.	.	.	.	.	.	.	.
.	.	.	8G/L	.	8G/L 8e	.	8cc\L	.	.	.	.	.	.	.	.	.	.	.	.	.	.	.	.	.	.	.	.	.	.	.	.	.
4r	.	.	8G/	.	8e/)	.	8cc\	.	.	.	.	.	.	.	8cc\L	et	.	.	.	.	.	.	.	.	.	.	.	.	.	.	.	.
.	.	.	8G/J	.	8e/J	.	8cc\J	.	.	.	.	.	.	.	8ee\J	.	.	.	.	.	.	.	.	.	.	.	.	.	.	.	.	.
=33	=33	=33	=33	=33	=33	=33	=33	=33	=33	=33	=33	=33	=33	=33	=33	=33	=33	=33	=33	=33	=33	=33	=33	=33	=33	=33	=33	=33	=33	=33	=33	=33
4C/	-7 5	.	8r	.	8r	.	8r	.	1r	.	1r	.	1r	.	4.gg\	Ho-	1ryy	1ryy	1r	1r	.	.	.	.	.	1r	.	1r	.	1r	.	.
.	.	.	8c\L	.	8c/L 8e	.	8g/L 8b-X	.	.	.	.	.	.	.	.	.	.	.	.	.	.	.	.	.	.	.	.	.	.	.	.	.
4r	.	.	8c\	.	8c/ 8e	.	8g/ 8b-	.	.	.	.	.	.	.	.	.	.	.	.	.	.	.	.	.	.	.	.	.	.	.	.	.
.	.	.	8c\J	.	8c/J 8e	.	8g/J 8b-	.	.	.	.	.	.	.	8ee\	-mo	.	.	.	.	.	.	.	.	.	.	.	.	.	.	.	.
!	!	!	!	!	!	!	!	!	!	!	!	!	!	!	!LO:LB:g=original	!	!	!	!	!	!	!	!	!	!	!	!	!	!	!	!	!
4C/	.	.	8r	.	8r	.	8r	.	.	.	.	.	.	.	4cc\	fac-	.	.	.	.	.	.	.	.	.	.	.	.	.	.	.	.
.	.	.	8c\L	.	8c/L 8e	.	8g/L 8b-	.	.	.	.	.	.	.	.	.	.	.	.	.	.	.	.	.	.	.	.	.	.	.	.	.
4r	.	.	8c\	.	8c/ 8e	.	8g/ 8b-	.	.	.	.	.	.	.	4b-X\	-tus	.	.	.	.	.	.	.	.	.	.	.	.	.	.	.	.
.	.	.	8c\J	.	8c/J 8e	.	8g/J 8b-	.	.	.	.	.	.	.	.	.	.	.	.	.	.	.	.	.	.	.	.	.	.	.	.	.
=34	=34	=34	=34	=34	=34	=34	=34	=34	=34	=34	=34	=34	=34	=34	=34	=34	=34	=34	=34	=34	=34	=34	=34	=34	=34	=34	=34	=34	=34	=34	=34	=34
!LO:LB:g=original	!	!	!	!	!	!	!LO:LB:g=original	!	!	!	!	!	!	!	!	!	!	!	!	!	!	!	!	!	!	!	!	!	!	!	!	!
4F\	3	.	8r	.	8r	.	8r	.	1r	.	1r	.	1r	.	2a\	est	1ryy	1ryy	1r	1r	.	.	.	.	.	1r	.	1r	.	1r	.	.
.	.	.	8c\L	.	8c/L 8f	.	8f/L 8a	.	.	.	.	.	.	.	.	.	.	.	.	.	.	.	.	.	.	.	.	.	.	.	.	.
4r	.	.	8c\	.	8c/ 8f	.	8f/ 8a	.	.	.	.	.	.	.	.	.	.	.	.	.	.	.	.	.	.	.	.	.	.	.	.	.
.	.	.	8c\J	.	8c/J 8f	.	8f/J 8a	.	.	.	.	.	.	.	.	.	.	.	.	.	.	.	.	.	.	.	.	.	.	.	.	.
4F\	_	.	8r	.	8r	.	8r	.	.	.	.	.	.	.	4r	.	.	.	.	.	.	.	.	.	.	.	.	.	.	.	.	.
.	.	.	8c\L	.	8c/L 8f	.	8f/L 8a	.	.	.	.	.	.	.	.	.	.	.	.	.	.	.	.	.	.	.	.	.	.	.	.	.
4r	X	.	8c\	.	8c/ 8f	.	8f/ 8a	.	.	.	.	.	.	.	8a\L	et	.	.	.	.	.	.	.	.	.	.	.	.	.	.	.	.
.	.	.	8c\J	.	8c/J 8f	.	8f/J 8a	.	.	.	.	.	.	.	8cc#X\J	.	.	.	.	.	.	.	.	.	.	.	.	.	.	.	.	.
*	*	*	*Xtremolo	*	*	*	*	*	*	*	*	*	*	*	*	*	*	*	*	*	*	*	*	*	*	*	*	*	*	*	*	*
=35	=35	=35	=35	=35	=35	=35	=35	=35	=35	=35	=35	=35	=35	=35	=35	=35	=35	=35	=35	=35	=35	=35	=35	=35	=35	=35	=35	=35	=35	=35	=35	=35
4AA/	7 #	.	8r	.	8r	.	8r	.	1r	.	1r	.	1r	.	4.ee\	Ho-	1ryy	1ryy	1r	1r	.	.	.	.	.	1r	.	1r	.	1r	.	.
.	.	.	8A/L	.	8c#X/L 8e	.	8g/L 8a	.	.	.	.	.	.	.	.	.	.	.	.	.	.	.	.	.	.	.	.	.	.	.	.	.
4r	.	.	8A/	.	8c#/ 8e	.	8g/ 8a	.	.	.	.	.	.	.	.	.	.	.	.	.	.	.	.	.	.	.	.	.	.	.	.	.
.	.	.	8A/J	.	8c#/J 8e	.	8g/J 8a	.	.	.	.	.	.	.	8cc#X\	-mo	.	.	.	.	.	.	.	.	.	.	.	.	.	.	.	.
4AA/	.	.	8r	.	8r	.	8r	.	.	.	.	.	.	.	4a\	fac-	.	.	.	.	.	.	.	.	.	.	.	.	.	.	.	.
*	*	*	*tremolo	*	*	*	*	*	*	*	*	*	*	*	*	*	*	*	*	*	*	*	*	*	*	*	*	*	*	*	*	*
.	.	.	8A/L	.	8c#/L 8e	.	8g/L 8a	.	.	.	.	.	.	.	.	.	.	.	.	.	.	.	.	.	.	.	.	.	.	.	.	.
4r	.	.	8A/	.	8c#/ 8e	.	8g/ 8a	.	.	.	.	.	.	.	4g\	-tus	.	.	.	.	.	.	.	.	.	.	.	.	.	.	.	.
.	.	.	8A/J	.	8c#/J 8e	.	8g/J 8a	.	.	.	.	.	.	.	.	.	.	.	.	.	.	.	.	.	.	.	.	.	.	.	.	.
*	*	*	*Xtremolo	*	*	*	*	*	*	*	*	*	*	*	*	*	*	*	*	*	*	*	*	*	*	*	*	*	*	*	*	*
=36	=36	=36	=36	=36	=36	=36	=36	=36	=36	=36	=36	=36	=36	=36	=36	=36	=36	=36	=36	=36	=36	=36	=36	=36	=36	=36	=36	=36	=36	=36	=36	=36
8r	.	.	8r	.	8r	.	8r	.	1r	.	1r	.	1r	.	2f/	est	1ryy	1ryy	1r	1r	.	00r	.	00r	.	1r	.	1r	.	1r	.	00r
8D\L	3	.	8d\L	.	8A/L	.	8f/L 8a	.	.	.	.	.	.	.	.	.	.	.	.	.	.	.	.	.	.	.	.	.	.	.	.	.
8D\	.	.	8d\	.	8A/	.	8f/ 8a	.	.	.	.	.	.	.	.	.	.	.	.	.	.	.	.	.	.	.	.	.	.	.	.	.
8D\J	_	.	8d\J	.	8A/J	.	8f/J 8a	.	.	.	.	.	.	.	.	.	.	.	.	.	.	.	.	.	.	.	.	.	.	.	.	.
4D\	.	.	4d\	.	4A/	.	4f/ 4a	.	.	.	.	.	.	.	4r	.	.	.	.	.	.	.	.	.	.	.	.	.	.	.	.	.
4r	x	.	4r	.	4r	.	4r	.	.	.	.	.	.	.	(8g\L	et	.	.	.	.	.	.	.	.	.	.	.	.	.	.	.	.
.	.	.	.	.	.	.	.	.	.	.	.	.	.	.	8bn\J)	.	.	.	.	.	.	.	.	.	.	.	.	.	.	.	.	.
=37	=37	=37	=37	=37	=37	=37	=37	=37	=37	=37	=37	=37	=37	=37	=37	=37	=37	=37	=37	=37	=37	=37	=37	=37	=37	=37	=37	=37	=37	=37	=37	=37
!	!	!	!LO:LB:g=original	!	!LO:LB:g=original	!	!	!	!	!	!	!	!	!	!	!	!	!	!	!	!	!	!	!	!	!	!	!	!	!	!	!
4G\	n	.	8r	.	8r	.	8r	.	1r	.	1r	.	1r	.	2.dd\	Ho-	1ryy	1ryy	1r	1r	.	.	.	.	.	1r	.	1r	.	1r	.	.
*	*	*	*tremolo	*	*	*	*	*	*	*	*	*	*	*	*	*	*	*	*	*	*	*	*	*	*	*	*	*	*	*	*	*
.	.	.	8G/L	.	8G/L 8f	.	8dd\L	.	.	.	.	.	.	.	.	.	.	.	.	.	.	.	.	.	.	.	.	.	.	.	.	.
4r	_	.	8G/	.	8f/	.	8dd\	.	.	.	.	.	.	.	.	.	.	.	.	.	.	.	.	.	.	.	.	.	.	.	.	.
.	.	.	8G/J	.	8f/J	.	8dd\J	.	.	.	.	.	.	.	.	.	.	.	.	.	.	.	.	.	.	.	.	.	.	.	.	.
4G\	x	.	8r	.	8r	.	8r	.	.	.	.	.	.	.	.	.	.	.	.	.	.	.	.	.	.	.	.	.	.	.	.	.
.	.	.	8G/L	.	8G/L 8f	.	8dd|\L	.	.	.	.	.	.	.	.	.	.	.	.	.	.	.	.	.	.	.	.	.	.	.	.	.
4r	.	.	8G/	.	8f/	.	(8cc\	.	.	.	.	.	.	.	8cc\L	-mo	.	.	.	.	.	.	.	.	.	.	.	.	.	.	.	.
.	.	.	8G/J	.	8f/J	.	8dd\J)	.	.	.	.	.	.	.	8dd\J	.	.	.	.	.	.	.	.	.	.	.	.	.	.	.	.	.
=38	=38	=38	=38	=38	=38	=38	=38	=38	=38	=38	=38	=38	=38	=38	=38	=38	=38	=38	=38	=38	=38	=38	=38	=38	=38	=38	=38	=38	=38	=38	=38	=38
4c\	.	.	8r	.	8r	.	(8ee\L	.	1r	.	1r	.	1r	.	(8ee\L	Ho-	1ryy	1ryy	1r	1r	.	.	.	.	.	1r	.	1r	.	1r	.	.
.	.	.	8e\L	.	8b-X\L	.	8dd\	.	.	.	.	.	.	.	8dd\	.	.	.	.	.	.	.	.	.	.	.	.	.	.	.	.	.
4r	.	.	8f\	.	8a\	.	8cc\	.	.	.	.	.	.	.	8cc\	.	.	.	.	.	.	.	.	.	.	.	.	.	.	.	.	.
.	.	.	8g\J	.	8g\J	.	8b-X\J)	.	.	.	.	.	.	.	8b-X\J)	.	.	.	.	.	.	.	.	.	.	.	.	.	.	.	.	.
!	!	!	!	!	!	!	!	!	!	!	!	!	!	!	!LO:LB:g=original	!	!	!	!	!	!	!	!	!	!	!	!	!	!	!	!	!
4F\	6	.	8r	.	8r	.	(8a\L	.	.	.	.	.	.	.	8a\L	.	.	.	.	.	.	.	.	.	.	.	.	.	.	.	.	.
.	.	.	8f\L	.	8f/L	.	8dd\	.	.	.	.	.	.	.	8dd\J	.	.	.	.	.	.	.	.	.	.	.	.	.	.	.	.	.
4r	.	.	8f\	.	8a/	.	8ff\	.	.	.	.	.	.	.	(8ff\L	-mo	.	.	.	.	.	.	.	.	.	.	.	.	.	.	.	.
.	.	.	8f\J	.	8f/J	.	8dd\J)	.	.	.	.	.	.	.	8dd\J)	.	.	.	.	.	.	.	.	.	.	.	.	.	.	.	.	.
=39	=39	=39	=39	=39	=39	=39	=39	=39	=39	=39	=39	=39	=39	=39	=39	=39	=39	=39	=39	=39	=39	=39	=39	=39	=39	=39	=39	=39	=39	=39	=39	=39
!	!	!	!	!	!	!	!LO:LB:g=original	!	!	!	!	!	!	!	!	!	!	!	!	!	!	!	!	!	!	!	!	!	!	!	!	!
4G\	4	.	8r	.	8r	.	8r	.	1r	.	1r	.	1r	.	(4.cc\	fa-	1ryy	1ryy	1r	1r	.	.	.	.	.	1r	.	1r	.	1r	.	.
.	.	.	8g\L	.	8G/L 8e	.	8cc\L	.	.	.	.	.	.	.	.	.	.	.	.	.	.	.	.	.	.	.	.	.	.	.	.	.
4r	.	.	8g\	.	8e/	.	8cc\	.	.	.	.	.	.	.	.	.	.	.	.	.	.	.	.	.	.	.	.	.	.	.	.	.
.	.	.	8g\J	.	8e/J	.	8cc\J	.	.	.	.	.	.	.	8ee\)	.	.	.	.	.	.	.	.	.	.	.	.	.	.	.	.	.
4GG/	n	.	8r	.	8r	.	8r	.	.	.	.	.	.	.	4g\	.	.	.	.	.	.	.	.	.	.	.	.	.	.	.	.	.
.	.	.	8G/L	.	8G/L 8f	.	8bn\L	.	.	.	.	.	.	.	.	.	.	.	.	.	.	.	.	.	.	.	.	.	.	.	.	.
4r	.	.	8G/	.	8f/	.	8b\	.	.	.	.	.	.	.	4bn\	-ctus	.	.	.	.	.	.	.	.	.	.	.	.	.	.	.	.
.	.	.	8G/J	.	8f/J	.	8b\J	.	.	.	.	.	.	.	.	.	.	.	.	.	.	.	.	.	.	.	.	.	.	.	.	.
=40	=40	=40	=40	=40	=40	=40	=40	=40	=40	=40	=40	=40	=40	=40	=40	=40	=40	=40	=40	=40	=40	=40	=40	=40	=40	=40	=40	=40	=40	=40	=40	=40
!LO:LB:g=original	!	!	!	!	!	!	!LO:TX:b:t=dol&colon;	!	!	!	!	!	!	!	!	!	!	!	!	!	!	!	!	!	!	!	!	!	!	!	!	!
4C/	1	.	4c\	.	2G/ 2e	.	8cc|\L	.	1r	.	1r	.	1r	.	4cc\	est	1ryy	1ryy	1r	1r	.	0r	.	0r	.	1r	.	1r	.	1r	.	0r
.	.	.	.	.	.	.	(8gg\	.	.	.	.	.	.	.	.	.	.	.	.	.	.	.	.	.	.	.	.	.	.	.	.	.
4r	.	.	4r	.	.	.	8aa\	.	.	.	.	.	.	.	4r	.	.	.	.	.	.	.	.	.	.	.	.	.	.	.	.	.
.	.	.	.	.	.	.	8gg\J)	.	.	.	.	.	.	.	.	.	.	.	.	.	.	.	.	.	.	.	.	.	.	.	.	.
2G\	7	.	2g\	.	8r	.	(8ff#X\L	.	.	.	.	.	.	.	2r	.	.	.	.	.	.	.	.	.	.	.	.	.	.	.	.	.
.	.	.	.	.	8bn\L	.	8gg\	.	.	.	.	.	.	.	.	.	.	.	.	.	.	.	.	.	.	.	.	.	.	.	.	.
.	.	.	.	.	8cc\	.	8aa\	.	.	.	.	.	.	.	.	.	.	.	.	.	.	.	.	.	.	.	.	.	.	.	.	.
.	.	.	.	.	8dd\J	.	8bbn\J)	.	.	.	.	.	.	.	.	.	.	.	.	.	.	.	.	.	.	.	.	.	.	.	.	.
=41	=41	=41	=41	=41	=41	=41	=41	=41	=41	=41	=41	=41	=41	=41	=41	=41	=41	=41	=41	=41	=41	=41	=41	=41	=41	=41	=41	=41	=41	=41	=41	=41
!	!	!	!	!	!LO:TX:t=P:problem=mixed beam	!	!	!	!	!	!	!	!	!	!LO:TX:a:t=2.	!	!	!	!	!	!	!	!	!	!	!	!	!	!	!	!	!
2c\	3	.	4cc\	.	8ee\L	.	8ccc|\L	.	1r	.	1r	.	1r	.	0r	.	1ryy	1ryy	1r	1r	.	.	.	.	.	1r	.	1r	.	1r	.	.
.	.	.	.	.	8e/	.	(8gg\	.	.	.	.	.	.	.	.	.	.	.	.	.	.	.	.	.	.	.	.	.	.	.	.	.
.	.	.	4e\	.	8g/	.	8ee\	.	.	.	.	.	.	.	.	.	.	.	.	.	.	.	.	.	.	.	.	.	.	.	.	.
.	.	.	.	.	8e/J	.	8cc\J)	.	.	.	.	.	.	.	.	.	.	.	.	.	.	.	.	.	.	.	.	.	.	.	.	.
4G\	n	.	4f\	.	8r	.	(8bn\L	.	.	.	.	.	.	.	.	.	.	.	.	.	.	.	.	.	.	.	.	.	.	.	.	.
.	.	.	.	.	8a/L	.	8ff\	.	.	.	.	.	.	.	.	.	.	.	.	.	.	.	.	.	.	.	.	.	.	.	.	.
4GG/	7	.	4g\	.	8f/	.	8dd\	.	.	.	.	.	.	.	.	.	.	.	.	.	.	.	.	.	.	.	.	.	.	.	.	.
.	.	.	.	.	8d/J	.	8b\J)	.	.	.	.	.	.	.	.	.	.	.	.	.	.	.	.	.	.	.	.	.	.	.	.	.
=42	=42	=42	=42	=42	=42	=42	=42	=42	=42	=42	=42	=42	=42	=42	=42	=42	=42	=42	=42	=42	=42	=42	=42	=42	=42	=42	=42	=42	=42	=42	=42	=42
!	!	!	!	!	!LO:LB:g=original	!	!	!	!	!	!	!	!	!	!	!	!	!	!	!	!	!	!	!	!	!	!	!	!	!	!	!
2GG/	7	.	2g\	.	2f/	.	2dd\	.	1r	.	1r	.	1r	.	.	.	1ryy	1ryy	1r	1r	.	1r	.	1r	.	1r	.	1r	.	1r	.	1r
4C/	3	.	4c\	.	4e/	.	4cc\	.	.	.	.	.	.	.	.	.	.	.	.	.	.	.	.	.	.	.	.	.	.	.	.	.
4r	.	.	4r	.	4r	.	4r	.	.	.	.	.	.	.	.	.	.	.	.	.	.	.	.	.	.	.	.	.	.	.	.	.
=43	=43	=43	=43	=43	=43	=43	=43	=43	=43	=43	=43	=43	=43	=43	=43	=43	=43	=43	=43	=43	=43	=43	=43	=43	=43	=43	=43	=43	=43	=43	=43	=43
!LO:TX:a:t=2	!	!	!LO:TX:a:t=2.	!	!LO:TX:a:t=2	!	!LO:TX:a:t=2.	!	!LO:TX:a:t=Adagio	!	!	!	!	!	!LO:TX:t=P:problem=bemol ołówkiem	!	!	!	!	!	!	!	!	!	!	!LO:LB:g=original	!	!	!	!LO:LB:g=original	!	!
0r	.	.	0r	.	0r	.	0r	.	2C/	Cru-	2B-X\	Cru-	2g\	Cru-	2ee\	Cru-	1ryy	1ryy	2C/	1c	.	2G\	.	2B-X\	.	2g/	.	2ee\	.	2bb-X\	.	2ccc\
.	.	.	.	.	.	.	.	.	2C/	-ci-	2B-\	-ci-	2g\	-ci-	2ee\	-ci-	.	.	2C/	.	.	2G\	.	2B-\	.	2g/	.	2ee\	.	2bb-\	.	2ccc\
=44	=44	=44	=44	=44	=44	=44	=44	=44	=44	=44	=44	=44	=44	=44	=44	=44	=44	=44	=44	=44	=44	=44	=44	=44	=44	=44	=44	=44	=44	=44	=44	=44
!	!	!	!	!	!	!	!	!	!	!	!	!	!	!	!	!	!	!	!	!LO:LB:g=original	!	!	!	!LO:LB:g=original	!	!	!	!	!	!	!	!
.	.	.	.	.	.	.	.	.	2C/	-fi-	2B-\	-fi-	2g\	-fi-	2ee\	-fi-	1ryy	1ryy	4C/	2c/	.	4G\	.	4B-\	.	4g/	.	4ee\	.	4bb-\	.	8ccc\L
!	!	!	!	!	!	!	!	!	!	!	!	!	!	!	!	!	!	!	!	!	!	!	!	!	!	!	!	!	!	!	!	!LO:TX:b:t=cis
.	.	.	.	.	.	.	.	.	.	.	.	.	.	.	.	.	.	.	.	.	.	.	.	.	.	.	.	.	.	.	.	8ddd-X\
.	.	.	.	.	.	.	.	.	.	.	.	.	.	.	.	.	.	.	4C/	.	.	4G\	.	4B-\	.	4g/	.	4ee\	.	4bb-\	.	8ccc\
.	.	.	.	.	.	.	.	.	.	.	.	.	.	.	.	.	.	.	.	.	.	.	.	.	.	.	.	.	.	.	.	8ddd-\J
.	.	.	.	.	.	.	.	.	2C/	-xus	2B-\	-xus	2g\	-xus	2ee\	-xus	.	.	4C/	4c/	.	4G\	.	4B-\	.	4g/	.	4ee\	.	4bb-\	.	8aa-X\L
.	.	.	.	.	.	.	.	.	.	.	.	.	.	.	.	.	.	.	.	.	.	.	.	.	.	.	.	.	.	.	.	8bb-\
.	.	.	.	.	.	.	.	.	.	.	.	.	.	.	.	.	.	.	4C/	4c/	.	4G\	.	4B-\	.	4g/	.	4ee\	.	4bb-\	.	8gg\
.	.	.	.	.	.	.	.	.	.	.	.	.	.	.	.	.	.	.	.	.	.	.	.	.	.	.	.	.	.	.	.	8aa-\J
=45	=45	=45	=45	=45	=45	=45	=45	=45	=45	=45	=45	=45	=45	=45	=45	=45	=45	=45	=45	=45	=45	=45	=45	=45	=45	=45	=45	=45	=45	=45	=45	=45
*tremolo	*	*	*	*	*	*	*	*	*	*	*	*	*	*	*	*	*	*	*	*	*	*	*	*	*	*	*	*	*	*	*	*
*	*	*	*	*	*tremolo	*	*	*	*	*ij	*	*	*	*ij	*	*	*	*	*	*	*	*	*	*	*	*	*	*	*	*	*	*
!	!	!	!	!	!	!	!LO:TX:t=P:problem=mixed beam	!	!	!	!	!	!	!	!	!	!	!	!	!	!	!	!	!	!	!	!	!	!	!	!	!
!LO:TX:a:t=Tutti	!	!LO:DY:rj:Bi:b:t=for	!	!	!	!LO:DY:Bi:b:rj:t=f.	!	!LO:DY:b:Bi:t=for	!	!	!	!	!	!	!	!	!	!	!LO:TX:t=P:problem=brak t. 45-47	!	!	!LO:PB:g=original	!	!	!	!	!	!LO:LB:g=original	!	!	!	!
8F\L	-3	f	8f\L	.	8a-X\ 8ccL	f	8f/L	f	2F\	Cru-	2c\	cru-	2a-X\	Cru-	2ff\	Cru-	1ryy	1ryy	1ryy	1f	f	2F\	f	2A-X\	.	2a-X/	f	2ff\	f	2aa-X\	.	2ff\
8F\	.	.	8f\	.	8a-X\ 8cc	.	8ff\J	.	.	.	.	.	.	.	.	.	.	.	.	.	.	.	.	.	.	.	.	.	.	.	.	.
8F\	.	.	8f\	.	8a-X\ 8cc	.	16aa-X|\LL	.	.	.	.	.	.	.	.	.	.	.	.	.	.	.	.	.	.	.	.	.	.	.	.	.
.	.	.	.	.	.	.	(16gg\J	.	.	.	.	.	.	.	.	.	.	.	.	.	.	.	.	.	.	.	.	.	.	.	.	.
8F\J	.	.	8f\J	.	8a-X\ 8ccJ	.	8ff\J)	.	.	.	.	.	.	.	.	.	.	.	.	.	.	.	.	.	.	.	.	.	.	.	.	.
8F\L	_	.	8f\L	.	8a-\ 8ccL	.	(16a-X/LL	.	2F\	-ci-	2c\	-ci-	2a-\	-ci-	2ff\	-ci-	.	.	.	.	.	2F\	.	2A-\	.	2a-/	.	2ff\	.	2aa-\	.	2fff\
.	.	.	.	.	.	.	16g/J)	.	.	.	.	.	.	.	.	.	.	.	.	.	.	.	.	.	.	.	.	.	.	.	.	.
8F\	x	.	8f\	.	8a-\ 8cc	.	8f|/J	.	.	.	.	.	.	.	.	.	.	.	.	.	.	.	.	.	.	.	.	.	.	.	.	.
!	!	!	!	!	!	!	!LO:LB:g=original	!	!	!	!	!	!	!	!	!	!	!	!	!	!	!	!	!	!	!	!	!	!	!	!	!
8F\	.	.	8f\	.	8a-\ 8cc	.	(16a-/LL	.	.	.	.	.	.	.	.	.	.	.	.	.	.	.	.	.	.	.	.	.	.	.	.	.
.	.	.	.	.	.	.	16g/J)	.	.	.	.	.	.	.	.	.	.	.	.	.	.	.	.	.	.	.	.	.	.	.	.	.
8F\J	.	.	8f\J	.	8a-\ 8ccJ	.	8f|/J	.	.	.	.	.	.	.	.	.	.	.	.	.	.	.	.	.	.	.	.	.	.	.	.	.
=46	=46	=46	=46	=46	=46	=46	=46	=46	=46	=46	=46	=46	=46	=46	=46	=46	=46	=46	=46	=46	=46	=46	=46	=46	=46	=46	=46	=46	=46	=46	=46	=46
!	!	!	!	!	!	!	!LO:TX:t=P:problem=mixed beam	!	!	!	!	!	!	!	!LO:LB:g=original	!	!	!	!	!	!	!	!	!	!	!	!	!	!	!	!	!
8G\L	3	.	8en\L	.	8g\ 8b-XL	.	8en/L	.	2F\	-fi-	2c\	-fi-	2b-X\	-fi-	2een\	-fi-	1ryy	1ryy	1ryy	1c	.	2G\	.	2B-\	.	2g/	.	2een\	.	2gg\	.	2eeen\
8G\	.	.	8en\	.	8g\ 8b-X	.	8gg\J	.	.	.	.	.	.	.	.	.	.	.	.	.	.	.	.	.	.	.	.	.	.	.	.	.
8G\	.	.	8en\	.	8g\ 8b-X	.	(16bb-X\LL	.	.	.	.	.	.	.	.	.	.	.	.	.	.	.	.	.	.	.	.	.	.	.	.	.
.	.	.	.	.	.	.	16aa-X\J)	.	.	.	.	.	.	.	.	.	.	.	.	.	.	.	.	.	.	.	.	.	.	.	.	.
8G\J	.	.	8en\J	.	8g\ 8b-XJ	.	8gg'\J	.	.	.	.	.	.	.	.	.	.	.	.	.	.	.	.	.	.	.	.	.	.	.	.	.
8G\L	_	.	8e\L	.	8g\ 8b-L	.	(16g/LL	.	2F\	-xus	2c\	-xus	2b-\	-xus	2ee\	-xus	.	.	.	.	.	2G\	.	2B-\	.	2g/	.	2ee\	.	2gg\	.	2eee\
*	*	*	*	*	*	*	*	*	*	*Xij	*	*	*	*Xij	*	*	*	*	*	*	*	*	*	*	*	*	*	*	*	*	*	*
.	.	.	.	.	.	.	16f/J)	.	.	.	.	.	.	.	.	.	.	.	.	.	.	.	.	.	.	.	.	.	.	.	.	.
8G\	x	.	8e\	.	8g\ 8b-	.	8en|/J	.	.	.	.	.	.	.	.	.	.	.	.	.	.	.	.	.	.	.	.	.	.	.	.	.
8G\	.	.	8e\	.	8g\ 8b-	.	(16g/LL	.	.	.	.	.	.	.	.	.	.	.	.	.	.	.	.	.	.	.	.	.	.	.	.	.
.	.	.	.	.	.	.	16f/J)	.	.	.	.	.	.	.	.	.	.	.	.	.	.	.	.	.	.	.	.	.	.	.	.	.
8G\J	.	.	8e\J	.	8g\ 8b-J	.	8e|/J	.	.	.	.	.	.	.	.	.	.	.	.	.	.	.	.	.	.	.	.	.	.	.	.	.
=47	=47	=47	=47	=47	=47	=47	=47	=47	=47	=47	=47	=47	=47	=47	=47	=47	=47	=47	=47	=47	=47	=47	=47	=47	=47	=47	=47	=47	=47	=47	=47	=47
!	!	!	!	!	!	!	!LO:TX:t=P:problem=mixed beam	!	!	!	!LO:LB:g=original	!	!	!	!	!	!	!	!	!	!	!	!	!	!	!	!	!	!	!	!	!
8C/L	7	.	8e\L	.	8g\ 8b-L	.	8en'/L	.	4.C/	e-	4.c\	e-	4.b-\	e-	4.gg\	e-	1ryy	1ryy	1ryy	1c	.	2G\	.	2B-\	.	2b-X\	.	2gg\	.	2bb-X\	.	2ggg\
8C/	.	.	8e\	.	8g\ 8b-	.	8gg'\J	.	.	.	.	.	.	.	.	.	.	.	.	.	.	.	.	.	.	.	.	.	.	.	.	.
8C/	.	.	8e\	.	8g\ 8b-	.	(16bb-\LL	.	.	.	.	.	.	.	.	.	.	.	.	.	.	.	.	.	.	.	.	.	.	.	.	.
.	.	.	.	.	.	.	16aa-X\J)	.	.	.	.	.	.	.	.	.	.	.	.	.	.	.	.	.	.	.	.	.	.	.	.	.
8C/J	.	.	8e\J	.	8g\ 8b-J	.	8gg|\J	.	8C/	-ti-	8c\	-ti-	8b-\	-ti-	8gg\	-ti-	.	.	.	.	.	.	.	.	.	.	.	.	.	.	.	.
8C/L	_	.	8e\L	.	8g\ 8b-L	.	(16g/LL	.	4C/	-am	4c\	-am	4b-\	-am	4gg\	-am	.	.	.	.	.	2G\	.	2B-\	.	2b-\	.	2gg\	.	2bb-\	.	2ggg\
.	.	.	.	.	.	.	16f/J)	.	.	.	.	.	.	.	.	.	.	.	.	.	.	.	.	.	.	.	.	.	.	.	.	.
8C/	x	.	8e\	.	8g\ 8b-	.	8e|/J	.	.	.	.	.	.	.	.	.	.	.	.	.	.	.	.	.	.	.	.	.	.	.	.	.
!	!	!	!	!	!	!	!	!	!	!	!	!	!LO:LB:g=original	!	!	!	!	!	!	!	!	!	!	!	!	!	!	!	!	!	!	!
8C/	.	.	8e\	.	8g\ 8b-	.	(16g/LL	.	4C/	pro-	4c\	pro	4b-\	pro	4gg\	pro	.	.	.	.	.	.	.	.	.	.	.	.	.	.	.	.
.	.	.	.	.	.	.	16f/J)	.	.	.	.	.	.	.	.	.	.	.	.	.	.	.	.	.	.	.	.	.	.	.	.	.
8C/J	.	.	8e\J	.	8g\ 8b-J	.	8e|/J	.	.	.	.	.	.	.	.	.	.	.	.	.	.	.	.	.	.	.	.	.	.	.	.	.
=48	=48	=48	=48	=48	=48	=48	=48	=48	=48	=48	=48	=48	=48	=48	=48	=48	=48	=48	=48	=48	=48	=48	=48	=48	=48	=48	=48	=48	=48	=48	=48	=48
!	!	!	!LO:LB:g=original	!	!	!	!LO:TX:t=P:problem=mixed beam	!	!	!	!	!	!	!	!	!	!	!	!	!	!	!	!	!	!	!	!	!	!	!	!	!LO:PB:g=original
8F\L	-3	.	8f\L	.	8a-X\ 8ccL	.	8f/L	.	2F\	-no-	2c\	no-	2a-X\	no-	2ff\	no-	1ryy	1ryy	2F/	1f	.	2F\	.	2A-X\	.	2a-X\	.	2ff\	.	2aa-X\	.	2fff\
8F\	.	.	8f\	.	8a-X\ 8cc	.	8ff\J	.	.	.	.	.	.	.	.	.	.	.	.	.	.	.	.	.	.	.	.	.	.	.	.	.
8F\	.	.	8f\	.	8a-X\ 8cc	.	(16aa-X\LL	.	.	.	.	.	.	.	.	.	.	.	.	.	.	.	.	.	.	.	.	.	.	.	.	.
.	.	.	.	.	.	.	16gg\J)	.	.	.	.	.	.	.	.	.	.	.	.	.	.	.	.	.	.	.	.	.	.	.	.	.
8F\J	.	.	8f\J	.	8a-X\ 8ccJ	.	8ff|\J	.	.	.	.	.	.	.	.	.	.	.	.	.	.	.	.	.	.	.	.	.	.	.	.	.
8F\L	_	.	8f\L	.	8a-\ 8ccL	.	(16a-X/LL	.	4F\	-bis	4c\	-bis	4a-\	-bis	4ff\	-bis	.	.	2F/	.	.	2F\	.	2A-\	.	2a-\	.	2ff\	.	2aa-\	.	2fff\
.	.	.	.	.	.	.	16g/J)	.	.	.	.	.	.	.	.	.	.	.	.	.	.	.	.	.	.	.	.	.	.	.	.	.
8F\	x	.	8f\	.	8a-\ 8cc	.	8f|/J	.	.	.	.	.	.	.	.	.	.	.	.	.	.	.	.	.	.	.	.	.	.	.	.	.
8F\	.	.	8f\	.	8a-\ 8cc	.	(16a-/LL	.	4F\	sub	4c\	sub	4a-\	sub	4ff\	sub	.	.	.	.	.	.	.	.	.	.	.	.	.	.	.	.
.	.	.	.	.	.	.	16g/J)	.	.	.	.	.	.	.	.	.	.	.	.	.	.	.	.	.	.	.	.	.	.	.	.	.
8F\J	.	.	8f\J	.	8a-\ 8ccJ	.	8f|/J	.	.	.	.	.	.	.	.	.	.	.	.	.	.	.	.	.	.	.	.	.	.	.	.	.
=49	=49	=49	=49	=49	=49	=49	=49	=49	=49	=49	=49	=49	=49	=49	=49	=49	=49	=49	=49	=49	=49	=49	=49	=49	=49	=49	=49	=49	=49	=49	=49	=49
!LO:LB:g=original	!	!	!	!	!	!	!LO:TX:t=P:problem=mixed beam	!	!LO:LB:g=original	!	!	!	!	!	!	!	!	!	!LO:TX:a:t=2	!LO:TX:a:t=2	!	!	!	!	!	!	!	!	!	!	!	!
8E-X\L	-7	.	8e-X\L	.	8g\ 8b-XL	.	8e-X/L	.	4.E-X\	pon-	4.B-\	Pon-	4.g\	pon-	4.dd-X\	Pon-	1ryy	1ryy	0r	0r	.	2G\	.	2B-\	.	2b-X\	.	2dd-X\	.	2bb-\	.	2ddd-X\
8E-X\	.	.	8e-X\	.	8g\ 8b-X	.	8dd-X\J	.	.	.	.	.	.	.	.	.	.	.	.	.	.	.	.	.	.	.	.	.	.	.	.	.
!	!	!	!	!	!	!	!LO:LB:g=original	!	!	!	!	!	!	!	!	!	!	!	!	!	!	!	!	!	!	!	!	!	!	!	!	!
8E-X\	.	.	8e-X\	.	8g\ 8b-X	.	(16ff\LL	.	.	.	.	.	.	.	.	.	.	.	.	.	.	.	.	.	.	.	.	.	.	.	.	.
.	.	.	.	.	.	.	16ee-X\J)	.	.	.	.	.	.	.	.	.	.	.	.	.	.	.	.	.	.	.	.	.	.	.	.	.
8E-X\J	.	.	8e-X\J	.	8g\ 8b-XJ	.	8dd-|\J	.	8E-\	-ti-	8B-\	-ti-	8g\	-ti-	8dd-\	-ti-	.	.	.	.	.	.	.	.	.	.	.	.	.	.	.	.
8E-\L	_	.	8e-\L	.	8g\ 8b-L	.	(16g/LL	.	4E-\	-o	4B-\	-o	4g\	-o	4dd-\	-o	.	.	.	.	.	2G\	.	2B-\	.	2b-\	.	2dd-\	.	2bb-\	.	2ddd-\
.	.	.	.	.	.	.	16f/J)	.	.	.	.	.	.	.	.	.	.	.	.	.	.	.	.	.	.	.	.	.	.	.	.	.
8E-\	x	.	8e-\	.	8g\ 8b-	.	8e-|/J	.	.	.	.	.	.	.	.	.	.	.	.	.	.	.	.	.	.	.	.	.	.	.	.	.
8E-\	.	.	8e-\	.	8g\ 8b-	.	(16g/LL	.	4E-\	Pi-	4B-\	Pi-	4g\	Pi-	4dd-\	Pi-	.	.	.	.	.	.	.	.	.	.	.	.	.	.	.	.
.	.	.	.	.	.	.	16f/J)	.	.	.	.	.	.	.	.	.	.	.	.	.	.	.	.	.	.	.	.	.	.	.	.	.
8E-\J	.	.	8e-\J	.	8g\ 8b-J	.	8e-|/J	.	.	.	.	.	.	.	.	.	.	.	.	.	.	.	.	.	.	.	.	.	.	.	.	.
=50	=50	=50	=50	=50	=50	=50	=50	=50	=50	=50	=50	=50	=50	=50	=50	=50	=50	=50	=50	=50	=50	=50	=50	=50	=50	=50	=50	=50	=50	=50	=50	=50
!	!	!	!	!	!	!	!LO:TX:t=P:problem=mixed beam	!	!	!	!	!	!	!	!	!	!	!	!	!	!	!	!	!	!	!	!	!	!	!	!	!
8A-X\L	3	.	8a-X\L	.	8e-X/ 8ccL	.	8a-X/L	.	2A-X\	-la-	2c\	-la-	2e-X\	-la-	2cc\	-la-	1ryy	1ryy	.	.	.	2A-X\	.	2c\	.	2a-X\	.	2cc\	.	2aa-X\	.	2ccc\
8A-X\	.	.	8a-X\	.	8e-X/ 8cc	.	8aa-X\J	.	.	.	.	.	.	.	.	.	.	.	.	.	.	.	.	.	.	.	.	.	.	.	.	.
8A-X\	.	.	8a-X\	.	8e-X/ 8cc	.	(16ccc\LL	.	.	.	.	.	.	.	.	.	.	.	.	.	.	.	.	.	.	.	.	.	.	.	.	.
.	.	.	.	.	.	.	16bb-\J)	.	.	.	.	.	.	.	.	.	.	.	.	.	.	.	.	.	.	.	.	.	.	.	.	.
8A-X\J	.	.	8a-X\J	.	8e-X/ 8ccJ	.	8aa-|\J	.	.	.	.	.	.	.	.	.	.	.	.	.	.	.	.	.	.	.	.	.	.	.	.	.
8A-\L	_	.	8a-\L	.	8e-/ 8ccL	.	(16cc\LL	.	2A-\	-to	2c\	-to	2e-\	-to	2cc\	-to	.	.	.	.	.	2A-\	.	2c\	.	2a-\	.	2cc\	.	2aa-\	.	2ccc\
.	.	.	.	.	.	.	16b-\J)	.	.	.	.	.	.	.	.	.	.	.	.	.	.	.	.	.	.	.	.	.	.	.	.	.
8A-\	x	.	8a-\	.	8e-/ 8cc	.	8a-|\J	.	.	.	.	.	.	.	.	.	.	.	.	.	.	.	.	.	.	.	.	.	.	.	.	.
8A-\	.	.	8a-\	.	8e-/ 8cc	.	(16cc\LL	.	.	.	.	.	.	.	.	.	.	.	.	.	.	.	.	.	.	.	.	.	.	.	.	.
.	.	.	.	.	.	.	16b-\J)	.	.	.	.	.	.	.	.	.	.	.	.	.	.	.	.	.	.	.	.	.	.	.	.	.
8A-\J	.	.	8a-\J	.	8e-/ 8ccJ	.	8a-|\J	.	.	.	.	.	.	.	.	.	.	.	.	.	.	.	.	.	.	.	.	.	.	.	.	.
=51	=51	=51	=51	=51	=51	=51	=51	=51	=51	=51	=51	=51	=51	=51	=51	=51	=51	=51	=51	=51	=51	=51	=51	=51	=51	=51	=51	=51	=51	=51	=51	=51
!	!	!	!	!	!LO:SIC:v:s=2e-	!	!	!	!	!	!	!	!	!	!	!	!	!	!	!	!	!	!	!	!	!	!	!	!	!	!	!
8F\L	5 n3	.	8f\L	.	8e/ 8ccL	.	8an\L	.	2F\	paſ-	2c\	paſ-	2an\	pas-	2ee-X\	pas-	1ryy	1ryy	1F	1f	.	2An\	.	2c\	.	2an\	.	2cc\	.	2aan\	.	2ccc\
8F\	.	.	8f\	.	8e/ 8cc	.	8aan\J	.	.	.	.	.	.	.	.	.	.	.	.	.	.	.	.	.	.	.	.	.	.	.	.	.
8F\	.	.	8f\	.	8e/ 8cc	.	(16ccc\LL	.	.	.	.	.	.	.	.	.	.	.	.	.	.	.	.	.	.	.	.	.	.	.	.	.
.	.	.	.	.	.	.	16bb-\J)	.	.	.	.	.	.	.	.	.	.	.	.	.	.	.	.	.	.	.	.	.	.	.	.	.
!	!	!	!	!	!LO:LB:g=original	!	!	!	!	!	!	!	!	!	!	!	!	!	!	!	!	!	!	!	!	!	!	!	!	!	!	!
8F\J	.	.	8f\J	.	8e/ 8ccJ	.	8aa|\J	.	.	.	.	.	.	.	.	.	.	.	.	.	.	.	.	.	.	.	.	.	.	.	.	.
!	!	!	!	!	!LO:SIC:v:s=2e-	!	!	!	!	!	!	!	!	!	!	!	!	!	!	!	!	!	!	!	!	!	!	!	!	!	!	!
8F\L	.	.	8f\L	.	2e/ 2cc	.	(16cc\LL	.	2F\	-sus	2c\	-sus	2a\	-sus	2ee-\	-sus	.	.	.	.	.	2A\	.	2c\	.	2a\	.	2cc\	.	2aa\	.	2ccc\
.	.	.	.	.	.	.	16b-\J)	.	.	.	.	.	.	.	.	.	.	.	.	.	.	.	.	.	.	.	.	.	.	.	.	.
8F\	.	.	8f\	.	.	.	8a|\J	.	.	.	.	.	.	.	.	.	.	.	.	.	.	.	.	.	.	.	.	.	.	.	.	.
8F\	.	.	8f\	.	.	.	(16cc\LL	.	.	.	.	.	.	.	.	.	.	.	.	.	.	.	.	.	.	.	.	.	.	.	.	.
.	.	.	.	.	.	.	16b-\J)	.	.	.	.	.	.	.	.	.	.	.	.	.	.	.	.	.	.	.	.	.	.	.	.	.
8F\J	.	.	8f\J	.	.	.	8a|\J	.	.	.	.	.	.	.	.	.	.	.	.	.	.	.	.	.	.	.	.	.	.	.	.	.
=52	=52	=52	=52	=52	=52	=52	=52	=52	=52	=52	=52	=52	=52	=52	=52	=52	=52	=52	=52	=52	=52	=52	=52	=52	=52	=52	=52	=52	=52	=52	=52	=52
!	!	!	!	!	!	!	!	!	!	!	!	!	!	!	!LO:LB:g=original	!	!	!	!	!	!	!	!	!	!	!	!	!	!	!LO:LB:g=original	!	!
8B-X\L	-3	.	8b-\L	.	8f/ 8b-XL	.	8b-\L	.	2B-X\	et	2f\	et	2b-X\	et	2dd-X\	et	1ryy	1ryy	1F	1f	.	2B-X\	.	2d-X\	.	2b-X\	.	2dd-X\	.	2bb-\	.	2ddd-X\
8B-X\	.	.	8b-\	.	8f/ 8b-X	.	8bb-\J	.	.	.	.	.	.	.	.	.	.	.	.	.	.	.	.	.	.	.	.	.	.	.	.	.
8B-X\	.	.	8b-\	.	8f/ 8b-X	.	(16ddd-X\LL	.	.	.	.	.	.	.	.	.	.	.	.	.	.	.	.	.	.	.	.	.	.	.	.	.
.	.	.	.	.	.	.	16ccc\J)	.	.	.	.	.	.	.	.	.	.	.	.	.	.	.	.	.	.	.	.	.	.	.	.	.
8B-X\J	.	.	8b-\J	.	8f/ 8b-XJ	.	8bb-|\J	.	.	.	.	.	.	.	.	.	.	.	.	.	.	.	.	.	.	.	.	.	.	.	.	.
8B-\L	-3	.	8b-\L	.	8f/ 8b-L	.	(16dd-X\LL	.	2B-\	se-	2f\	se-	2b-\	se-	2dd-\	se-	.	.	.	.	.	2B-\	.	2d-\	.	2b-\	.	2dd-\	.	2bb-\	.	2ddd-\
.	.	.	.	.	.	.	16cc\J)	.	.	.	.	.	.	.	.	.	.	.	.	.	.	.	.	.	.	.	.	.	.	.	.	.
8B-\	.	.	8b-\	.	8f/ 8b-	.	8b-|\J	.	.	.	.	.	.	.	.	.	.	.	.	.	.	.	.	.	.	.	.	.	.	.	.	.
!	!	!	!	!	!	!	!LO:LB:g=original	!	!	!	!	!	!	!	!	!	!	!	!	!	!	!	!	!	!	!	!	!	!	!	!	!
8B-\	.	.	8b-\	.	8f/ 8b-	.	(16dd-\LL	.	.	.	.	.	.	.	.	.	.	.	.	.	.	.	.	.	.	.	.	.	.	.	.	.
.	.	.	.	.	.	.	16cc\J)	.	.	.	.	.	.	.	.	.	.	.	.	.	.	.	.	.	.	.	.	.	.	.	.	.
8B-\J	.	.	8b-\J	.	8f/ 8b-J	.	8b-|\J	.	.	.	.	.	.	.	.	.	.	.	.	.	.	.	.	.	.	.	.	.	.	.	.	.
=53	=53	=53	=53	=53	=53	=53	=53	=53	=53	=53	=53	=53	=53	=53	=53	=53	=53	=53	=53	=53	=53	=53	=53	=53	=53	=53	=53	=53	=53	=53	=53	=53
!	!	!	!	!	!	!	!	!	!	!	!	!	!	!	!LO:TX:t=P:problem=n skreślony ołówkiem	!	!	!	!	!	!	!	!	!	!	!LO:LB:g=original	!	!	!	!	!	!
8G\L	7 5 n3	.	8g\L	.	8f/ 8bnL	.	8bn\L	.	2G\	-pul-	2f\	-pul-	2bn\	-pul-	2ddn\	-pul-	1ryy	1ryy	1g	2g\	.	2Bn\	.	2dn\	.	2bn\	.	2ddn\	.	2bbn\	.	2dddn\
8G\	.	.	8g\	.	8f/ 8bn	.	8bbny\J	.	.	.	.	.	.	.	.	.	.	.	.	.	.	.	.	.	.	.	.	.	.	.	.	.
8G\	.	.	8g\	.	8f/ 8bn	.	(16dddn\LL	.	.	.	.	.	.	.	.	.	.	.	.	.	.	.	.	.	.	.	.	.	.	.	.	.
.	.	.	.	.	.	.	16ccc\J)	.	.	.	.	.	.	.	.	.	.	.	.	.	.	.	.	.	.	.	.	.	.	.	.	.
8G\J	.	.	8g\J	.	8f/ 8bnJ	.	8bb|\J	.	.	.	.	.	.	.	.	.	.	.	.	.	.	.	.	.	.	.	.	.	.	.	.	.
8G\L	_ _ _	.	8g\L	.	8f/ 8bL	.	(16dd\LL	.	2G\	-tus	2f\	-tus	2b\	-tus	2dd\	-tus,	.	.	.	2g\	.	2B\	.	2d\	.	2b\	.	2dd\	.	2bb\	.	2ddd\
.	x x x	.	.	.	.	.	16cc\J)	.	.	.	.	.	.	.	.	.	.	.	.	.	.	.	.	.	.	.	.	.	.	.	.	.
8G\	.	.	8g\	.	8f/ 8b	.	8b|\J	.	.	.	.	.	.	.	.	.	.	.	.	.	.	.	.	.	.	.	.	.	.	.	.	.
8G\	.	.	8g\	.	8f/ 8b	.	(16dd\LL	.	.	.	.	.	.	.	.	.	.	.	.	.	.	.	.	.	.	.	.	.	.	.	.	.
.	.	.	.	.	.	.	16cc\J)	.	.	.	.	.	.	.	.	.	.	.	.	.	.	.	.	.	.	.	.	.	.	.	.	.
8G\J	.	.	8g\J	.	8f/ 8bJ	.	8b|\J	.	.	.	.	.	.	.	.	.	.	.	.	.	.	.	.	.	.	.	.	.	.	.	.	.
*	*	*	*	*	*Xtremolo	*	*	*	*	*	*	*	*	*	*	*	*	*	*	*	*	*	*	*	*	*	*	*	*	*	*	*
*Xtremolo	*	*	*	*	*	*	*	*	*	*	*	*	*	*	*	*	*	*	*	*	*	*	*	*	*	*	*	*	*	*	*	*
=54	=54	=54	=54	=54	=54	=54	=54	=54	=54	=54	=54	=54	=54	=54	=54	=54	=54	=54	=54	=54	=54	=54	=54	=54	=54	=54	=54	=54	=54	=54	=54	=54
!	!	!	!	!	!	!	!	!	!	!	!	!	!LO:LB:g=original	!	!	!	!	!	!	!	!	!LO:LB:g=original	!	!LO:LB:g=original	!	!	!	!	!	!	!	!
2C/	x x 3	.	2c\	.	2en/	.	4cc\	.	2C/	es[t]	2c\	eſt	2cc\	est	2cc\	est	1ryy	1ryy	2c/	2c/	.	2c\	.	2c\	.	2cc\	.	2cc\	.	2ccc\	.	2ccc\
.	.	.	.	.	.	.	4r	.	.	.	.	.	.	.	.	.	.	.	.	.	.	.	.	.	.	.	.	.	.	.	.	.
2r	.	.	2r	.	2r	.	2r	.	4c\	paſ-	4c\	pas-	4cc\	pas-	4cc\	pas-	.	.	2r	2r	.	4c\	.	4c\	.	4cc\	.	4cc\	.	4ccc\	.	4ccc\
.	.	.	.	.	.	.	.	.	4c\	-sus	4c\	-sus	4cc\	-sus	4cc\	-sus	.	.	.	.	.	4c\	.	4c\	.	4cc\	.	4cc\	.	4ccc\	.	4ccc\
=55	=55	=55	=55	=55	=55	=55	=55	=55	=55	=55	=55	=55	=55	=55	=55	=55	=55	=55	=55	=55	=55	=55	=55	=55	=55	=55	=55	=55	=55	=55	=55	=55
!LO:TX:a:t=1	!	!	!LO:TX:a:t=1	!	!LO:TX:a:t=1	!	!LO:TX:a:t=1.	!	!	!	!LO:LB:g=original	!	!	!	!	!	!	!	!LO:LB:g=original	!LO:TX:a:t=1	!	!	!	!	!	!	!	!LO:LB:g=original	!	!	!	!
!LO:TX:b:t=Solo	!	!	!	!	!	!	!	!	!	!	!	!	!	!	!	!	!	!	!	!	!	!	!	!	!	!	!	!	!	!	!	!
1r	.	.	1r	.	1r	.	1r	.	4d-X\	et	4d-X\	et	4dd-X\	et	4dd-X\	et	1ryy	1ryy	1r	1r	.	4d-X\	.	4d-X\	.	4dd-X\	.	4dd-X\	.	4ddd-X\	.	4ddd-X\
.	.	.	.	.	.	.	.	.	4c\	se-	4c\	se-	4cc\	se-	4cc\	se-	.	.	.	.	.	4c\	.	4c\	.	4cc\	.	4cc\	.	4ccc\	.	4ccc\
!	!	!	!	!	!	!	!	!	!	!	!	!	!	!	!	!	!	!	!	!	!	!	!	!	!	!	!	!	!	!LO:TX:t=P:problem=sam bemol, bez nuty	!	!
.	.	.	.	.	.	.	.	.	4B-X\	-pul-	4B-X\	-pul-	4b-X\	-pul-	4b-X\	-pul-	.	.	.	.	.	4B-X\	.	4B-X\	.	4b-X\	.	4b-X\	.	4bb-X\	.	4bb-X\
.	.	.	.	.	.	.	.	.	4c\	-tus	4c\	-tus	4cc\	-tus	4b-\	-tus	.	.	.	.	.	4c\	.	4c\	.	4cc\	.	4cc\	.	4ccc\	.	4ccc\
=56	=56	=56	=56	=56	=56	=56	=56	=56	=56	=56	=56	=56	=56	=56	=56	=56	=56	=56	=56	=56	=56	=56	=56	=56	=56	=56	=56	=56	=56	=56	=56	=56
!	!	!	!	!	!	!	!	!	!LO:LB:g=original	!	!	!	!	!	!	!	!	!	!	!	!	!	!	!	!	!	!	!	!	!	!	!
4F\	-3	.	4f\	.	8r	.	8r	.	2F\	est	2c\	et	2a-X\	est	2ff\	et	1ryy	1ryy	2F/	2g\	.	2F\	.	2A-X\	.	2a-X\	.	2ff\	.	2ff\	.	2ff\
.	.	.	.	.	8a-X/	.	8ff\	.	.	.	.	.	.	.	.	.	.	.	.	.	.	.	.	.	.	.	.	.	.	.	.	.
4r	.	.	4r	.	16f/LL	.	(16aa-X\LL	.	.	.	.	.	.	.	.	.	.	.	.	.	.	.	.	.	.	.	.	.	.	.	.	.
.	.	.	.	.	16g/J	.	16gg\J)	.	.	.	.	.	.	.	.	.	.	.	.	.	.	.	.	.	.	.	.	.	.	.	.	.
.	.	.	.	.	8a-/J	.	8ff|\J	.	.	.	.	.	.	.	.	.	.	.	.	.	.	.	.	.	.	.	.	.	.	.	.	.
4C/	5	.	4en\	.	8r	.	8r	.	2C/	se-	2c\	se-	2b-\	se-	2gg\	se-	.	.	2c/	2g\	.	2G\	.	2B-\	.	2b-X\	.	2gg\	.	2een\	.	2gg\
.	.	.	.	.	8b-X/	.	8gg\	.	.	.	.	.	.	.	.	.	.	.	.	.	.	.	.	.	.	.	.	.	.	.	.	.
4r	.	.	4r	.	16g/LL	.	(16bb-X\LL	.	.	.	.	.	.	.	.	.	.	.	.	.	.	.	.	.	.	.	.	.	.	.	.	.
.	.	.	.	.	16a-X/J	.	16aa-X\J)	.	.	.	.	.	.	.	.	.	.	.	.	.	.	.	.	.	.	.	.	.	.	.	.	.
.	.	.	.	.	8b-/J	.	8gg|\J	.	.	.	.	.	.	.	.	.	.	.	.	.	.	.	.	.	.	.	.	.	.	.	.	.
=57	=57	=57	=57	=57	=57	=57	=57	=57	=57	=57	=57	=57	=57	=57	=57	=57	=57	=57	=57	=57	=57	=57	=57	=57	=57	=57	=57	=57	=57	=57	=57	=57
!LO:LB:g=original	!	!	!	!	!	!	!	!	!	!	!	!	!	!	!	!	!	!	!	!	!	!	!	!	!	!	!	!	!	!	!	!LO:LB:g=original
4F\	-3	.	4e\	.	8r	.	8r	.	2F\	-pul-	2c\	-pul-	2cc\	-pul-	2aa-X\	-pul-	1ryy	1ryy	2F/	2f\	.	2A-X\	.	2c\	.	2cc\	.	2aa-X\	.	2ff\	.	2aa-X\
.	.	.	.	.	8cc\	.	8aa-X\	.	.	.	.	.	.	.	.	.	.	.	.	.	.	.	.	.	.	.	.	.	.	.	.	.
4r	.	.	4r	.	16a-X\LL	.	(16ccc\LL	.	.	.	.	.	.	.	.	.	.	.	.	.	.	.	.	.	.	.	.	.	.	.	.	.
.	.	.	.	.	16b-\J	.	16bb-\J)	.	.	.	.	.	.	.	.	.	.	.	.	.	.	.	.	.	.	.	.	.	.	.	.	.
.	.	.	.	.	8cc\J	.	8aa-|\J	.	.	.	.	.	.	.	.	.	.	.	.	.	.	.	.	.	.	.	.	.	.	.	.	.
!	!	!	!	!	!LO:LB:g=original	!	!LO:LB:g=original	!	!	!	!	!	!	!	!	!	!	!	!	!	!	!	!	!	!	!	!	!	!	!	!	!
4BB-/	-3	.	4B-/	.	8r	.	8r	.	2BB-/	-tus	2d-X\	-tus	2b-\	-tus	2dd-X\	-tus	.	.	2r	2r	.	2B-\	.	2d-X\	.	2dd-X\	.	2bb-X\	.	2dd-X\	.	2bb-X\
.	.	.	.	.	8dd-X\	.	8bb-\	.	.	.	.	.	.	.	.	.	.	.	.	.	.	.	.	.	.	.	.	.	.	.	.	.
4r	.	.	4r	.	8b-\L	.	(16ddd-X\LL	.	.	.	.	.	.	.	.	.	.	.	.	.	.	.	.	.	.	.	.	.	.	.	.	.
.	.	.	.	.	.	.	16ccc\J)	.	.	.	.	.	.	.	.	.	.	.	.	.	.	.	.	.	.	.	.	.	.	.	.	.
.	.	.	.	.	16cc\L	.	8bb-|\J	.	.	.	.	.	.	.	.	.	.	.	.	.	.	.	.	.	.	.	.	.	.	.	.	.
.	.	.	.	.	16dd-\JJ	.	.	.	.	.	.	.	.	.	.	.	.	.	.	.	.	.	.	.	.	.	.	.	.	.	.	.
=58	=58	=58	=58	=58	=58	=58	=58	=58	=58	=58	=58	=58	=58	=58	=58	=58	=58	=58	=58	=58	=58	=58	=58	=58	=58	=58	=58	=58	=58	=58	=58	=58
!	!	!	!	!	!	!	!	!	!	!	!	!	!	!	!LO:LB:g=original	!	!	!	!	!	!	!	!	!	!	!	!	!	!	!	!	!
*	*	*	*	*	*	*	*	*	*	*ij	*	*	*	*	*	*	*	*	*	*	*	*	*	*	*	*	*	*	*	*	*	*
4C/	3	.	4c\	.	8r	.	8r	.	2C/	se-	2c\	se-	2a-X\	se-	2cc\	se-	1ryy	1ryy	2c/	2g\	.	2c\	.	2c\	.	2cc\	.	2ccc\	.	2een\	.	2ccc\
.	.	.	.	.	8g/L 8b-X	.	8ccc'\L	.	.	.	.	.	.	.	.	.	.	.	.	.	.	.	.	.	.	.	.	.	.	.	.	.
4r	.	.	4r	.	8g/ 8b-	.	8ccc'\	.	.	.	.	.	.	.	.	.	.	.	.	.	.	.	.	.	.	.	.	.	.	.	.	.
.	.	.	.	.	8g/J 8b-	.	8ccc'\J	.	.	.	.	.	.	.	.	.	.	.	.	.	.	.	.	.	.	.	.	.	.	.	.	.
4C/	3	.	4c\	.	8r	.	8r	.	4C/	-pul-	4B-\	-pul-	4g\	-pul-	4een\	-pul-	.	.	2c/	2g\	.	2B-\	.	2en\	.	2b-X\	.	2een\	.	2gg\	.	2eee\
.	.	.	.	.	8g/L 8b-	.	(8een'\L	.	.	.	.	.	.	.	.	.	.	.	.	.	.	.	.	.	.	.	.	.	.	.	.	.
4r	.	.	4r	.	8g/ 8b-	.	8ee'\	.	4C/	-tus	4B-\	-tus	4g\	-tus	4ee\	-tus	.	.	.	.	.	.	.	.	.	.	.	.	.	.	.	.
*	*	*	*	*	*	*	*	*	*	*Xij	*	*	*	*	*	*	*	*	*	*	*	*	*	*	*	*	*	*	*	*	*	*
.	.	.	.	.	8g/J 8b-	.	8ee'\J)	.	.	.	.	.	.	.	.	.	.	.	.	.	.	.	.	.	.	.	.	.	.	.	.	.
=59	=59	=59	=59	=59	=59	=59	=59	=59	=59	=59	=59	=59	=59	=59	=59	=59	=59	=59	=59	=59	=59	=59	=59	=59	=59	=59	=59	=59	=59	=59	=59	=59
!	!	!LO:DY:b:t=pia	!LO:LB:g=original	!	!	!	!	!	!	!	!	!	!LO:LB:g=original	!	!	!	!	!	!	!	!LO:DY:t=p	!	!LO:DY:b:rj:t=p	!	!	!	!	!	!	!	!	!
4F\	8	p	8r	.	8r	.	8r	.	2F\	est	2f\	eſt	2an\	est	2ff\	est	1ryy	1ryy	2F/	2f\	p	2An\	p	2f\	.	4an\	.	4ff\	.	4aan\	.	4fff\
!	!	!	!	!	!	!LO:DY:b:rj	!	!	!	!	!	!	!	!	!	!	!	!	!	!	!	!	!	!	!	!	!	!	!	!	!	!
*	*	*	*Xtremolo	*	*	*	*	*	*	*	*	*	*	*	*	*	*	*	*	*	*	*	*	*	*	*	*	*	*	*	*	*
.	.	.	8f\L	.	8an/L	p	(8ff'\L	.	.	.	.	.	.	.	.	.	.	.	.	.	.	.	.	.	.	.	.	.	.	.	.	.
4r	.	.	8f\	.	8a/	.	8ff'\	.	.	.	.	.	.	.	.	.	.	.	.	.	.	.	.	.	.	4r	.	4r	.	4r	.	4r
.	.	.	8f\J	.	8a/J	.	8ff'\J)	.	.	.	.	.	.	.	.	.	.	.	.	.	.	.	.	.	.	.	.	.	.	.	.	.
4F\	-7	.	8r	.	8r	.	8r	.	4F\	paſ-	4f\	paſ-	4cc\	pas-	4ee-X\	pas-	.	.	2F/	2f\	.	2c\	.	2e-X\	.	2r	.	2r	.	2r	.	2r
.	.	.	8f\L	.	8cc\L	.	(8ee-X|\L	.	.	.	.	.	.	.	.	.	.	.	.	.	.	.	.	.	.	.	.	.	.	.	.	.
4r	.	.	8f\	.	8cc\	.	8ee-|\	.	4F\	-sus	4f\	-sus	4cc\	-sus	4ee-\	-sus	.	.	.	.	.	.	.	.	.	.	.	.	.	.	.	.
.	.	.	8f\J	.	8cc\J	.	8ee-|\J)	.	.	.	.	.	.	.	.	.	.	.	.	.	.	.	.	.	.	.	.	.	.	.	.	.
=60	=60	=60	=60	=60	=60	=60	=60	=60	=60	=60	=60	=60	=60	=60	=60	=60	=60	=60	=60	=60	=60	=60	=60	=60	=60	=60	=60	=60	=60	=60	=60	=60
!	!	!	!	!	!	!	!	!	!	!	!	!	!	!	!	!	!	!	!	!	!	!	!LO:DY:b:rj	!	!	!LO:TX:a:t=1.	!	!LO:TX:a:t=1.	!	!LO:TX:a:t=1	!	!LO:TX:a:t=1
4F\	-6	.	8r	.	8r	.	8r	.	2F\	et	2f\	et	2b-X\	et	2dd-X\	et	1ryy	1ryy	1F	1f	.	2B-X\	f	2d-X\	.	1r	.	1r	.	1r	.	1r
*	*	*	*tremolo	*	*	*	*	*	*	*	*	*	*	*	*	*	*	*	*	*	*	*	*	*	*	*	*	*	*	*	*	*
.	.	.	8f\L	.	8b-X\L	.	(8dd-X'\L	.	.	.	.	.	.	.	.	.	.	.	.	.	.	.	.	.	.	.	.	.	.	.	.	.
4r	.	.	8f\	.	8b-\	.	8dd-'\	.	.	.	.	.	.	.	.	.	.	.	.	.	.	.	.	.	.	.	.	.	.	.	.	.
.	.	.	8f\J	.	8b-\J	.	8dd-'\J)	.	.	.	.	.	.	.	.	.	.	.	.	.	.	.	.	.	.	.	.	.	.	.	.	.
4F\	_	.	8r	.	8r	.	8r	.	2F\	se-	2f\	se-	2b-\	se-	2dd-\	se-	.	.	.	.	.	2B-\	.	2d-\	.	.	.	.	.	.	.	.
.	.	.	8f\L	.	8b-\L	.	(8dd-'\L	.	.	.	.	.	.	.	.	.	.	.	.	.	.	.	.	.	.	.	.	.	.	.	.	.
4r	x	.	8f\	.	8b-\	.	8dd-'\	.	.	.	.	.	.	.	.	.	.	.	.	.	.	.	.	.	.	.	.	.	.	.	.	.
.	.	.	8f\J	.	8b-\J	.	8dd-'\J)	.	.	.	.	.	.	.	.	.	.	.	.	.	.	.	.	.	.	.	.	.	.	.	.	.
=61	=61	=61	=61	=61	=61	=61	=61	=61	=61	=61	=61	=61	=61	=61	=61	=61	=61	=61	=61	=61	=61	=61	=61	=61	=61	=61	=61	=61	=61	=61	=61	=61
!	!	!LO:DY:b:rj:t=for	!	!	!	!	!	!LO:DY:b:Bi:t=f.	!	!	!	!	!	!	!	!	!	!	!	!	!	!	!	!	!	!	!	!	!	!	!	!
4C/	.n10	f	8r	.	8r	.	8r	f	2C/	-pul-	2d-X\	-pul-	2g\	-pul-	2een\	-pul-	1ryy	1ryy	1c	1g	f	1G	.	8r	.	1g	.	8r	.	1bb-	.	8r
!	!	!	!	!	!	!LO:DY:rj:b	!	!	!	!	!	!	!	!	!	!	!	!	!	!	!	!	!	!	!	!	!	!	!	!	!	!
.	.	.	8c\L	.	8g/L 8b-	f	(8een|\L	.	.	.	.	.	.	.	.	.	.	.	.	.	.	.	.	8d-X\L	f	.	.	8dd-X\L	.	.	.	8ddd-X\L
4r	.	.	8c\	.	8g/ 8b-	.	8ee|\	.	.	.	.	.	.	.	.	.	.	.	.	.	.	.	.	8c\	.	.	.	8cc\	.	.	.	8ccc\
.	.	.	8c\J	.	8g/J 8b-	.	8ee|\J)	.	.	.	.	.	.	.	.	.	.	.	.	.	.	.	.	8B-\J	.	.	.	8b-X\J	.	.	.	8bb-X\J
!	!	!	!	!	!LO:LB:g=original	!	!	!	!	!	!	!	!	!	!	!	!	!	!	!	!	!	!	!	!	!	!	!	!	!	!	!
4C/	_	.	8r	.	8r	.	8r	.	2C/	-tus	2en\	-tus	2g\	-tus	2ee\	-tus	.	.	.	.	.	.	.	8A-X\L	.	.	.	8a-X\L	.	.	.	8aa-X\L
!	!	!	!	!	!	!	!LO:LB:g=original	!	!	!	!	!	!	!	!	!	!	!	!	!	!	!	!	!	!	!	!	!	!	!	!	!
.	.	.	8c\L	.	8g/L 8b-	.	(8ee|\L	.	.	.	.	.	.	.	.	.	.	.	.	.	.	.	.	8G\	.	.	.	8g\	.	.	.	8gg\
4r	x	.	8c\	.	8g/ 8b-	.	8ee|\	.	.	.	.	.	.	.	.	.	.	.	.	.	.	.	.	8c\	.	.	.	8cc\	.	.	.	8ccc\
.	.	.	8c\J	.	8g/J 8b-	.	8ee|\J)	.	.	.	.	.	.	.	.	.	.	.	.	.	.	.	.	8en\J	.	.	.	8een\J	.	.	.	8eeen\J
*	*	*	*Xtremolo	*	*	*	*	*	*	*	*	*	*	*	*	*	*	*	*	*	*	*	*	*	*	*	*	*	*	*	*	*
=62	=62	=62	=62	=62	=62	=62	=62	=62	=62	=62	=62	=62	=62	=62	=62	=62	=62	=62	=62	=62	=62	=62	=62	=62	=62	=62	=62	=62	=62	=62	=62	=62
!	!	!LO:DY:b:t=pia	!LO:TX:t=P:problem=t. 62-64 zapisane repetycją	!	!	!	!	!	!	!	!	!	!	!	!	!	!	!	!	!	!	!	!LO:DY:b:rj:t=p	!LO:LB:g=original	!LO:DY:rj:b:t=p	!LO:TX:t=P:problem=sam kasownik, brak nuty	!	!	!	!	!	!
4F\	8	p	8ryy	.	8r	.	8r	.	2F\	est	2f\	eſt	2an\	est	2ff\	est	1ryy	1ryy	1A	2f\	.	2An\	p	2f\	p	4an/	.	4ff\	.	4aan\	.	4fff\
!	!	!	!	!	!	!LO:DY:b:rj	!	!LO:DY:b	!	!	!	!	!	!	!	!	!	!	!	!	!	!	!	!	!	!	!	!	!	!	!	!
.	.	.	8f\Lyy	.	8an/L	p	(8ff|\L	p	.	.	.	.	.	.	.	.	.	.	.	.	.	.	.	.	.	.	.	.	.	.	.	.
4r	.	.	8f\yy	.	8a/	.	8ff|\	.	.	.	.	.	.	.	.	.	.	.	.	.	.	.	.	.	.	4r	.	4r	.	4r	.	4r
.	.	.	8f\Jyy	.	8a/J	.	8ff|\J)	.	.	.	.	.	.	.	.	.	.	.	.	.	.	.	.	.	.	.	.	.	.	.	.	.
!	!	!	!	!	!	!	!	!	!	!	!	!	!	!	!	!	!	!	!	!	!	!LO:LB:g=original	!	!	!	!	!	!	!	!	!	!
4F\	-7	.	8ryy	.	8r	.	8r	.	4F\	paſ-	4f\	paſ-	4cc\	pas-	4ee-X\	pas-	.	.	.	2f\	.	2c\	.	2e-X\	.	2r	.	2r	.	2r	.	2r
.	.	.	8f\Lyy	.	8cc\L	.	(8ee-X|\L	.	.	.	.	.	.	.	.	.	.	.	.	.	.	.	.	.	.	.	.	.	.	.	.	.
4r	.	.	8f\yy	.	8cc\	.	8ee-|\	.	4F\	-sus	4f\	-sus	4cc\	-sus	4ee-\	-sus	.	.	.	.	.	.	.	.	.	.	.	.	.	.	.	.
.	.	.	8f\Jyy	.	8cc\J	.	8ee-|\J)	.	.	.	.	.	.	.	.	.	.	.	.	.	.	.	.	.	.	.	.	.	.	.	.	.
=63	=63	=63	=63	=63	=63	=63	=63	=63	=63	=63	=63	=63	=63	=63	=63	=63	=63	=63	=63	=63	=63	=63	=63	=63	=63	=63	=63	=63	=63	=63	=63	=63
!	!	!	!	!	!	!	!	!	!	!	!	!	!	!	!	!	!	!	!	!	!	!	!	!	!	!LO:TX:a:t=1.	!	!LO:TX:a:t=1.	!	!LO:TX:a:t=1	!	!LO:TX:a:t=1
!	!	!	!	!	!	!	!	!	!	!	!	!	!	!	!	!	!	!	!	!	!	!	!	!	!	!LO:LB:g=original	!	!LO:PB:g=original	!	!LO:LB:g=original	!	!
4F\	-6	.	8ryy	.	8r	.	8r	.	2F\	et	2f\	et	2b-\	et	2dd-X\	et	1ryy	1ryy	1F	1f	.	2B-\	.	2d-X\	.	1r	.	1r	.	1r	.	1r
.	.	.	8f\Lyy	.	8b-\L	.	(8dd-X|\L	.	.	.	.	.	.	.	.	.	.	.	.	.	.	.	.	.	.	.	.	.	.	.	.	.
4r	.	.	8f\yy	.	8b-\	.	8dd-|\	.	.	.	.	.	.	.	.	.	.	.	.	.	.	.	.	.	.	.	.	.	.	.	.	.
.	.	.	8f\Jyy	.	8b-\J	.	8dd-|\J)	.	.	.	.	.	.	.	.	.	.	.	.	.	.	.	.	.	.	.	.	.	.	.	.	.
4F\	_	.	8ryy	.	8r	.	8r	.	2F\	se-	2f\	se-	2b-\	se-	2dd-\	se-	.	.	.	.	.	2B-\	.	2d-\	.	.	.	.	.	.	.	.
.	.	.	8f\Lyy	.	8b-\L	.	(8dd-|\L	.	.	.	.	.	.	.	.	.	.	.	.	.	.	.	.	.	.	.	.	.	.	.	.	.
4r	x	.	8f\yy	.	8b-\	.	8dd-|\	.	.	.	.	.	.	.	.	.	.	.	.	.	.	.	.	.	.	.	.	.	.	.	.	.
.	.	.	8f\Jyy	.	8b-\J	.	8dd-|\J)	.	.	.	.	.	.	.	.	.	.	.	.	.	.	.	.	.	.	.	.	.	.	.	.	.
=64	=64	=64	=64	=64	=64	=64	=64	=64	=64	=64	=64	=64	=64	=64	=64	=64	=64	=64	=64	=64	=64	=64	=64	=64	=64	=64	=64	=64	=64	=64	=64	=64
!LO:LB:g=original	!	!LO:DY:b:t=for	!	!	!	!	!	!	!LO:LB:g=original	!	!LO:LB:g=original	!	!	!	!LO:PB:g=original	!	!	!	!	!LO:N:vis=2	!	!	!	!	!	!	!	!	!	!	!	!
4C/	10	f	8ryy	.	8r	.	8r	.	2C/	-pul-	2d-X\	-pul-	2g\	-pul-	2een\	-pul-	1ryy	1ryy	1c	1g	.	1G	f	8r	.	1g	.	8r	.	1bb-	.	8r
!	!	!	!	!	!	!LO:DY:b:rj:Bi:t=for	!	!LO:DY:Bi:b:rj:t=f&colon;	!	!	!	!	!	!	!	!	!	!	!	!	!	!	!	!	!	!	!	!	!	!	!	!
.	.	.	8c\Lyy	.	8g/L 8b-	f	(8een'\L	f	.	.	.	.	.	.	.	.	.	.	.	.	.	.	.	8d-X\L	.	.	.	8dd-X\L	.	.	.	8ddd-X\L
4r	.	.	8c\yy	.	8g/ 8b-	.	8ee'\	.	.	.	.	.	.	.	.	.	.	.	.	.	.	.	.	8c\	.	.	.	8cc\	.	.	.	8ccc\
.	.	.	8c\Jyy	.	8g/J 8b-	.	8ee'\J)	.	.	.	.	.	.	.	.	.	.	.	.	.	.	.	.	8B-\J	.	.	.	8b-X\J	.	.	.	8bb-X\J
!	!	!	!	!	!	!	!	!	!	!	!	!	!LO:LB:g=original	!	!	!	!	!	!	!	!	!	!	!	!	!	!	!	!	!	!	!LO:LB:g=original
4C/	10	.	8ryy	.	8r	.	8r	.	2C/	-tus	2c\	-tus	2g\	-tus	2ee\	-tus	.	.	.	.	.	.	.	8A-X\L	.	.	.	8a-X\L	.	.	.	8aa-X\L
.	.	.	8c\Lyy	.	8g/L 8b-	.	8ee\L	.	.	.	.	.	.	.	.	.	.	.	.	.	.	.	.	8G\	.	.	.	8g\	.	.	.	8gg\
4r	.	.	8c\yy	.	8g/ 8b-	.	8ee\	.	.	.	.	.	.	.	.	.	.	.	.	.	.	.	.	8c\	.	.	.	8cc\	.	.	.	8ccc\
.	.	.	8c\Jyy	.	8g/J 8b-	.	8ee\J	.	.	.	.	.	.	.	.	.	.	.	.	.	.	.	.	8en\J	.	.	.	8een\J	.	.	.	8eeen\J
=65	=65	=65	=65	=65	=65	=65	=65	=65	=65	=65	=65	=65	=65	=65	=65	=65	=65	=65	=65	=65	=65	=65	=65	=65	=65	=65	=65	=65	=65	=65	=65	=65
!	!	!	!	!	!	!	!	!	!	!	!	!	!	!	!	!	!	!	!LO:TX:t=P:problem=brak t. 65-67	!	!LO:DY:t=p	!	!LO:DY:b:rj:t=p	!	!	!LO:TX:t=P:p = p.:problem	!	!	!	!	!	!
4F\	n3	.	8r	.	8r	.	8r	.	4F\	est	4c\	eſt	4an\	est.	4ff\	est.	1ryy	1ryy	1ryy	1f	p	1An	p	1c	.	1an	p	1cc	.	1aan	.	1ccc
!	!	!	!	!	!	!LO:DY:b:rj	!	!	!	!	!	!	!	!	!	!	!	!	!	!	!	!	!	!	!	!	!	!	!	!	!	!
.	.	.	8an\L	.	8f/L 8cc	p	8ff|\L	.	.	.	.	.	.	.	.	.	.	.	.	.	.	.	.	.	.	.	.	.	.	.	.	.
4r	.	.	8a\	.	8f/ 8cc	.	(8aan\	.	4r	.	4r	.	4r	.	4r	.	.	.	.	.	.	.	.	.	.	.	.	.	.	.	.	.
.	.	.	8a\J	.	8f/J 8cc	.	8gg\J)	.	.	.	.	.	.	.	.	.	.	.	.	.	.	.	.	.	.	.	.	.	.	.	.	.
4F\	.	.	8r	.	8r	.	(8ff\L	.	2r	.	2r	.	2r	.	2r	.	.	.	.	.	.	.	.	.	.	.	.	.	.	.	.	.
.	.	.	8a\L	.	8f/L 8cc	.	8een\)	.	.	.	.	.	.	.	.	.	.	.	.	.	.	.	.	.	.	.	.	.	.	.	.	.
4r	.	.	8a\	.	8f/ 8cc	.	(8dd\	.	.	.	.	.	.	.	.	.	.	.	.	.	.	.	.	.	.	.	.	.	.	.	.	.
.	.	.	8a\J	.	8f/J 8cc	.	8cc#X\J)	.	.	.	.	.	.	.	.	.	.	.	.	.	.	.	.	.	.	.	.	.	.	.	.	.
=66	=66	=66	=66	=66	=66	=66	=66	=66	=66	=66	=66	=66	=66	=66	=66	=66	=66	=66	=66	=66	=66	=66	=66	=66	=66	=66	=66	=66	=66	=66	=66	=66
!	!	!	!	!	!LO:LB:g=original	!	!	!	!LO:TX:a:t=8.	!	!LO:TX:a:t=8	!	!LO:TX:a:t=8	!	!LO:TX:a:t=8	!	!	!	!	!	!	!	!	!	!	!	!	!	!	!	!	!
4B-\	3	.	8r	.	8r	.	8r	.	00r	.	00r	.	00r	.	00r	.	1ryy	1ryy	1ryy	1g	.	2B-\	.	8r	.	1b-	.	8r	.	1bb-	.	8r
!	!	!	!	!	!	!	!	!LO:DY:rj:b	!	!	!	!	!	!	!	!	!	!	!	!	!	!	!	!	!	!	!	!	!	!	!	!
.	.	.	8f\L	.	8f/L 8b-	.	(8dd|\L	p	.	.	.	.	.	.	.	.	.	.	.	.	.	.	.	8dn\L	.	.	.	8ddn\L	.	.	.	8dddn\L
4r	.	.	8f\	.	8f/ 8b-	.	8dd|\	.	.	.	.	.	.	.	.	.	.	.	.	.	.	.	.	8f\	.	.	.	8ff\	.	.	.	8fff\
.	.	.	8f\J	.	8f/J 8b-	.	8dd|\J)	.	.	.	.	.	.	.	.	.	.	.	.	.	.	.	.	8en\J	.	.	.	8ee\J	.	.	.	8eee\J
4B-\	_	.	8r	.	8r	.	8r	.	.	.	.	.	.	.	.	.	.	.	.	.	.	2B-\	.	8d\L	.	.	.	8dd\L	.	.	.	8ddd\L
!	!	!	!	!	!	!	!LO:LB:g=original	!	!	!	!	!	!	!	!	!	!	!	!	!	!	!	!	!	!	!	!	!	!	!	!	!
*	*	*	*tremolo	*	*	*	*	*	*	*	*	*	*	*	*	*	*	*	*	*	*	*	*	*	*	*	*	*	*	*	*	*
.	.	.	8f\L	.	8f/L 8b-	.	(8dd|\L	.	.	.	.	.	.	.	.	.	.	.	.	.	.	.	.	8c\	.	.	.	8cc\	.	.	.	8ccc\
4r	x	.	8f\	.	8f/ 8b-	.	8dd|\	.	.	.	.	.	.	.	.	.	.	.	.	.	.	.	.	8B-\	.	.	.	8b-\	.	.	.	8bb-\
.	.	.	8f\J	.	8f/J 8b-	.	8dd|\J)	.	.	.	.	.	.	.	.	.	.	.	.	.	.	.	.	8An\J	.	.	.	8an\J	.	.	.	8aan\J
=67	=67	=67	=67	=67	=67	=67	=67	=67	=67	=67	=67	=67	=67	=67	=67	=67	=67	=67	=67	=67	=67	=67	=67	=67	=67	=67	=67	=67	=67	=67	=67	=67
4c\	3	.	8r	.	8r	.	8r	.	.	.	.	.	.	.	.	.	1ryy	1ryy	1ryy	1g	f	1G	.	8G\L	.	1g	.	8g\L	.	1gg	.	8gg\L
!	!	!	!LO:N:vis=4	!	!	!	!	!	!	!	!	!	!	!	!	!	!	!	!	!	!	!	!	!	!	!	!	!	!	!	!	!
.	.	.	8c\L	.	8g/L 8b-	.	(8ee|\L	.	.	.	.	.	.	.	.	.	.	.	.	.	.	.	.	8e\	.	.	.	8ee\	.	.	.	8eee\
4r	.	.	8c\	.	8g/ 8b-	.	8ee|\	.	.	.	.	.	.	.	.	.	.	.	.	.	.	.	.	8g\	.	.	.	8gg\	.	.	.	8ggg\
.	.	.	8c\J	.	8g/J 8b-	.	8ee|\J)	.	.	.	.	.	.	.	.	.	.	.	.	.	.	.	.	8f\J	.	.	.	8ff\J	.	.	.	8fff\J
4C/	7	.	8r	.	8r	.	8r	.	.	.	.	.	.	.	.	.	.	.	.	.	.	.	.	8e\L	.	.	.	8ee\L	.	.	.	8eee\L
!	!	!	!LO:N:vis=4	!	!	!	!	!	!	!	!	!	!	!	!	!	!	!	!	!	!	!	!	!	!	!	!	!	!	!	!	!
.	.	.	8c\L	.	8g/L 8b-	.	(8ee|\L	.	.	.	.	.	.	.	.	.	.	.	.	.	.	.	.	8d\	.	.	.	8dd\	.	.	.	8ddd\
4r	.	.	8c\	.	8g/ 8b-	.	8ee|\	.	.	.	.	.	.	.	.	.	.	.	.	.	.	.	.	8c\	.	.	.	8cc\	.	.	.	8ccc\
.	.	.	8c\J	.	8g/J 8b-	.	8ee|\J)	.	.	.	.	.	.	.	.	.	.	.	.	.	.	.	.	8B-\J	.	.	.	8b-\J	.	.	.	8bb-\J
*	*	*	*Xtremolo	*	*	*	*	*	*	*	*	*	*	*	*	*	*	*	*	*	*	*	*	*	*	*	*	*	*	*	*	*
=68	=68	=68	=68	=68	=68	=68	=68	=68	=68	=68	=68	=68	=68	=68	=68	=68	=68	=68	=68	=68	=68	=68	=68	=68	=68	=68	=68	=68	=68	=68	=68	=68
!	!	!	!	!	!	!	!	!	!	!	!	!	!	!	!	!	!	!	!	!	!	!	!	!LO:PB:g=original	!	!	!	!LO:LB:g=original	!	!	!	!
4F\	3	.	4f\	.	8r	.	8r	.	.	.	.	.	.	.	.	.	1ryy	1ryy	4F/	4f\	.	2F\	.	2A\	.	2f/	.	2a/	.	2ff\	.	2aa\
!	!	!	!	!	!	!	!	!LO:DY:b	!	!	!	!	!	!	!	!	!	!	!	!	!	!	!	!	!	!	!	!	!	!	!	!
.	.	.	.	.	8a/L	.	8ff|\L	p	.	.	.	.	.	.	.	.	.	.	.	.	.	.	.	.	.	.	.	.	.	.	.	.
4r	.	.	4r	.	8a/	.	(8cc\	.	.	.	.	.	.	.	.	.	.	.	4r	4r	.	.	.	.	.	.	.	.	.	.	.	.
.	.	.	.	.	8f/J	.	8a\J)	.	.	.	.	.	.	.	.	.	.	.	.	.	.	.	.	.	.	.	.	.	.	.	.	.
4BB-/	6	.	4B-/	.	8r	.	8r	.	.	.	.	.	.	.	.	.	.	.	2r	2r	.	4D\	.	4G\	.	4dd\	.	4g/	.	4dd\	.	4gg\
.	.	.	.	.	8d/L	.	8g|\L	.	.	.	.	.	.	.	.	.	.	.	.	.	.	.	.	.	.	.	.	.	.	.	.	.
4r	.	.	4r	.	8d/	.	(8b-\	.	.	.	.	.	.	.	.	.	.	.	.	.	.	8d\L	.	8B-\L	.	8dd\L	.	8b-\L	.	8dd\L	.	8bb-\L
.	.	.	.	.	8B-/J	.	8dd\J)	.	.	.	.	.	.	.	.	.	.	.	.	.	.	8B-\J	.	8d\J	.	8b-\J	.	8dd\J	.	8b-\J	.	8ddd\J
=69	=69	=69	=69	=69	=69	=69	=69	=69	=69	=69	=69	=69	=69	=69	=69	=69	=69	=69	=69	=69	=69	=69	=69	=69	=69	=69	=69	=69	=69	=69	=69	=69
4r	.	.	4r	.	4A/	.	4cc\	.	.	.	.	.	.	.	.	.	1ryy	1ryy	4r	4r	.	4r	.	4r	.	4r	.	4r	.	4r	.	4r
4C/	6 4	.	4c\	.	4.A/	.	4.f/	.	.	.	.	.	.	.	.	.	.	.	2f\	2a\	.	2A\	.	2c\	.	2a/	.	2cc\	.	2a/	.	2ccc\
4C/	_ _	.	4c\	.	.	.	.	.	.	.	.	.	.	.	.	.	.	.	.	.	.	.	.	.	.	.	.	.	.	.	.	.
.	.	.	.	.	8c/L	.	8a/L	.	.	.	.	.	.	.	.	.	.	.	.	.	.	.	.	.	.	.	.	.	.	.	.	.
4C/	5 3	.	4c\	.	8B-/	.	8g/	.	.	.	.	.	.	.	.	.	.	.	4c/	4g\	.	4B-\	.	4e\	.	4b-/	.	4ee\	.	4b-/	.	4ee\
.	.	.	.	.	8G/J	.	8e/J	.	.	.	.	.	.	.	.	.	.	.	.	.	.	.	.	.	.	.	.	.	.	.	.	.
=70	=70	=70	=70	=70	=70	=70	=70	=70	=70	=70	=70	=70	=70	=70	=70	=70	=70	=70	=70	=70	=70	=70	=70	=70	=70	=70	=70	=70	=70	=70	=70	=70
!	!	!	!LO:LB:g=original	!	!	!	!	!	!	!	!	!	!	!	!	!	!	!	!LO:LB:g=original	!	!	!	!	!	!	!	!	!	!	!	!	!
4F\	1	.	4f\	.	8A/L	.	8f|/L	.	00r	.	00r	.	00r	.	00r	.	1ryy	1ryy	2A/	2f\	.	4A\	.	4f\	.	4a/	.	4ff\	.	4a/	.	4ff\
.	.	.	.	.	8a/	.	(8cc/	.	.	.	.	.	.	.	.	.	.	.	.	.	.	.	.	.	.	.	.	.	.	.	.	.
4r	.	.	4r	.	8b-/	.	8dd/	.	.	.	.	.	.	.	.	.	.	.	.	.	.	4r	.	4r	.	4r	.	4r	.	4r	.	4r
.	.	.	.	.	8a/J	.	8cc/J)	.	.	.	.	.	.	.	.	.	.	.	.	.	.	.	.	.	.	.	.	.	.	.	.	.
2C/	7	.	8r	.	8g/L	.	(4.cc/	.	.	.	.	.	.	.	.	.	.	.	2c/	2g\	.	2B-\	.	8r	.	2b-\	.	8r	.	2bb-\	.	8r
!	!	!	!	!	!	!	!	!	!	!	!	!	!	!	!	!	!	!	!	!	!	!	!	!	!	!	!	!	!	!	!	!LO:LB:g=original
.	.	.	8G/L	.	8e/	.	.	.	.	.	.	.	.	.	.	.	.	.	.	.	.	.	.	8c\L	.	.	.	8cc\L	.	.	.	8ccc\L
.	.	.	8A/	.	8f/	.	.	.	.	.	.	.	.	.	.	.	.	.	.	.	.	.	.	8d\	.	.	.	8dd\	.	.	.	8ddd\
.	.	.	8B-/J	.	8g/J	.	8e/)	.	.	.	.	.	.	.	.	.	.	.	.	.	.	.	.	8e\J	.	.	.	8ee\J	.	.	.	8eee\J
=71	=71	=71	=71	=71	=71	=71	=71	=71	=71	=71	=71	=71	=71	=71	=71	=71	=71	=71	=71	=71	=71	=71	=71	=71	=71	=71	=71	=71	=71	=71	=71	=71
!LO:LB:g=original	!	!	!LO:TX:t=P:problem=brak t. 71	!	!	!	!LO:TX:t=P:problem=brak t. 71	!	!	!	!	!	!	!	!	!	!	!	!	!	!	!	!	!	!	!	!	!	!	!	!	!
4F\	3	.	1ryy	.	8f/L	.	1ryy	.	.	.	.	.	.	.	.	.	1ryy	1ryy	2A/	2f\	.	4A\	.	4f\	.	4a/	.	4ff\	.	4aa\	.	4fff\
.	.	.	.	.	8a/	.	.	.	.	.	.	.	.	.	.	.	.	.	.	.	.	.	.	.	.	.	.	.	.	.	.	.
4r	.	.	.	.	8b-/	.	.	.	.	.	.	.	.	.	.	.	.	.	.	.	.	4r	.	4r	.	4r	.	4r	.	4r	.	4r
.	.	.	.	.	8a/J	.	.	.	.	.	.	.	.	.	.	.	.	.	.	.	.	.	.	.	.	.	.	.	.	.	.	.
!	!	!	!	!	!LO:LB:g=original	!	!	!	!	!	!	!	!	!	!	!	!	!	!	!	!	!LO:LB:g=original	!	!	!	!	!	!	!	!	!	!
2C/	7	.	.	.	8g/L	.	.	.	.	.	.	.	.	.	.	.	.	.	2c/	2g\	.	2B-\	.	8r	.	2b-\	.	8r	.	2bb-\	.	8r
.	.	.	.	.	8e/	.	.	.	.	.	.	.	.	.	.	.	.	.	.	.	.	.	.	8c\L	.	.	.	8cc\L	.	.	.	8ccc\L
.	.	.	.	.	8f/	.	.	.	.	.	.	.	.	.	.	.	.	.	.	.	.	.	.	8d\	.	.	.	8dd\	.	.	.	8ddd\
.	.	.	.	.	8g/J	.	.	.	.	.	.	.	.	.	.	.	.	.	.	.	.	.	.	8e\J	.	.	.	8ff\J	.	.	.	8eee\J
=72	=72	=72	=72	=72	=72	=72	=72	=72	=72	=72	=72	=72	=72	=72	=72	=72	=72	=72	=72	=72	=72	=72	=72	=72	=72	=72	=72	=72	=72	=72	=72	=72
4F\	3	.	4c\	.	4f/	.	4f/	.	.	.	.	.	.	.	.	.	1ryy	1ryy	4A/	4f\	.	4A\	.	4f\	.	4a/	.	4ff\	.	4aa\	.	4fff\
4r	.	.	4r	.	4r	.	4r	.	.	.	.	.	.	.	.	.	.	.	4r	4r	.	4r	pp	4r	.	4r	.	4r	.	4r	.	4r
4FF/	1	.	4c\	.	4A/	.	4f/	.	.	.	.	.	.	.	.	.	.	.	4A/	4f\	.	4F\	.	4A\	.	4a/	.	4ff\	.	4ff\	.	4ff\
4FF/	1	.	4c\	.	4A/	.	4f/	.	.	.	.	.	.	.	.	.	.	.	4A/	4f\	.	4F\	.	4A\	.	4a/	.	4ff\	.	4ff\	.	4ff\
=73	=73	=73	=73	=73	=73	=73	=73	=73	=73	=73	=73	=73	=73	=73	=73	=73	=73	=73	=73	=73	=73	=73	=73	=73	=73	=73	=73	=73	=73	=73	=73	=73
2FF/	1	.	2c\	.	2A/	.	2f/	.	.	.	.	.	.	.	.	.	1ryy	1ryy	2A/	2f\	.	2F\	.	2A\	.	2a/	.	2ff\	.	2ff\	.	2ff\
!LO:TX:a:t=Et reſsurrexit ut Credo\nDa Capo.	!	!	!	!	!	!	!	!	!	!	!	!	!	!	!	!	!	!	!	!	!	!	!	!	!	!	!	!	!	!	!	!
2r	.	.	2r	.	2r	.	2r	.	.	.	.	.	.	.	.	.	.	.	2r	2r	.	2r	.	2r	.	2r	.	2r	.	2r	.	2r
==	==	==	==	==	==	==	==	==	==	==	==	==	==	==	==	==	==	==	==	==	==	==	==	==	==	==	==	==	==	==	==	==
*-	*-	*-	*-	*-	*-	*-	*-	*-	*-	*-	*-	*-	*-	*-	*-	*-	*-	*-	*-	*-	*-	*-	*-	*-	*-	*-	*-	*-	*-	*-	*-	*-
!!!system-decoration: [(s1,s2,s3,s4,s5,s6)][(s7,s8,s9)](s10)[(s11,s12,s13,s14)][(s15,s16,s17)](s18)
!!!RDF**kern: > = above
!!!RDF**kern: < = below
!!!RDF**kern: | = vertical stroke
!!!RDF**dynam: p = "p."
!!!ENC: Marcin Jachim
!!!END: 2020-10-08
!!!ENC: Krzysztof Stępień
!!!END: 2021-10-24
!!!YEC: Copyright 2022 Narodowy Instytut Fryderyka Chopina (https://polishscores.org)
!!!YEM: License CC-BY-4.0 (https://creativecommons.org/licenses/by/4.0)
